;FLAVOR:Marlin
;TIME:12956
;Filament used: 22.714m
;Layer height: 0.28
;MINX:76.85
;MINY:76.85
;MINZ:0.28
;MAXX:143.15
;MAXY:143.15
;MAXZ:188.96
;Generated with Cura_SteamEngine 4.8.0
M140 S60
M105
M190 S60
M104 S200
M105
M109 S200
M82 ;absolute extrusion mode
; --- Global Settings
; layer_height = 0.28
; smooth_spiralized_contours = True
; magic_mesh_surface_mode = normal
; machine_extruder_count = 1
; --- Single Extruder Settings
; speed_z_hop = 5
; retraction_amount = 5
; retraction_hop = 0.2
; retraction_hop_enabled = False
; retraction_enable = True
; retraction_speed = 45
; retraction_retract_speed = 45
; retraction_prime_speed = 45
; speed_travel = 200.0

M201 X500.00 Y500.00 Z100.00 E5000.00 ;Setup machine max acceleration
M203 X500.00 Y500.00 Z10.00 E50.00 ;Setup machine max feedrate
M204 P500.00 R1000.00 T500.00 ;Setup Print/Retract/Travel acceleration
M205 X8.00 Y8.00 Z0.40 E5.00 ;Setup Jerk
M220 S100 ;Reset Feedrate
M221 S100 ;Reset Flowrate

G28 ;Home

G92 E0 ;Reset Extruder
G1 Z2.0 F3000 ;Move Z Axis up
G1 X10.1 Y20 Z0.28 F5000.0 ;Move to start position
G1 X10.1 Y200.0 Z0.28 F1500.0 E15 ;Draw the first line
G1 X10.4 Y200.0 Z0.28 F5000.0 ;Move to side a little
G1 X10.4 Y20 Z0.28 F1500.0 E30 ;Draw the second line
G92 E0 ;Reset Extruder
G1 Z2.0 F3000 ;Move Z Axis up
G92 E0
G92 E0
G1 F2700 E-5
;LAYER_COUNT:597
;LAYER:0
M107
G0 F6000 X79.861 Y79.587 Z0.28
;TYPE:SKIRT
G1 F2700 E0
G1 F1200 X80.047 Y79.413 E0.01186
G1 X80.772 Y78.813 E0.05568
G1 X80.973 Y78.666 E0.06728
G1 X81.82 Y78.126 E0.11405
G1 X82.042 Y78.004 E0.12584
G1 X82.908 Y77.596 E0.17042
G1 X83.141 Y77.503 E0.1821
G1 X84.089 Y77.193 E0.22855
G1 X84.33 Y77.131 E0.24013
G1 X85.321 Y76.943 E0.2871
G1 X85.573 Y76.912 E0.29892
G1 X86.38 Y76.855 E0.33659
G1 X86.74 Y76.85 E0.35336
G1 X133.349 Y76.85 E2.52367
G1 X133.845 Y76.866 E2.54678
G1 X134.096 Y76.882 E2.55849
G1 X135.047 Y77.001 E2.60312
G1 X135.296 Y77.048 E2.61492
G1 X136.24 Y77.288 E2.66027
G1 X136.476 Y77.364 E2.67182
G1 X137.411 Y77.734 E2.71864
G1 X137.638 Y77.841 E2.73032
G1 X138.468 Y78.295 E2.77438
G1 X138.684 Y78.431 E2.78626
G1 X139.5 Y79.022 E2.83318
G1 X139.691 Y79.18 E2.84472
G1 X140.446 Y79.894 E2.89311
G1 X140.618 Y80.08 E2.9049
G1 X141.187 Y80.772 E2.94662
G1 X141.334 Y80.973 E2.95821
G1 X141.881 Y81.833 E3.00567
G1 X142.003 Y82.056 E3.01751
G1 X142.421 Y82.952 E3.06355
G1 X142.512 Y83.184 E3.07515
G1 X142.795 Y84.052 E3.11766
G1 X142.858 Y84.292 E3.12922
G1 X143.055 Y85.312 E3.17759
G1 X143.086 Y85.562 E3.18932
G1 X143.139 Y86.218 E3.21997
G1 X143.144 Y86.346 E3.22593
G1 X143.15 Y86.65 E3.24009
G1 X143.15 Y133.258 E5.41035
G1 X143.142 Y133.602 E5.42638
G1 X143.127 Y133.942 E5.44222
G1 X142.994 Y135.074 E5.4953
G1 X142.946 Y135.323 E5.5071
G1 X142.721 Y136.209 E5.54967
G1 X142.646 Y136.445 E5.5612
G1 X142.273 Y137.397 E5.60881
G1 X142.166 Y137.625 E5.62054
G1 X141.683 Y138.503 E5.6672
G1 X141.546 Y138.718 E5.67907
G1 X140.978 Y139.498 E5.724
G1 X140.82 Y139.689 E5.73554
G1 X140.17 Y140.383 E5.77982
G1 X139.985 Y140.558 E5.79168
G1 X139.229 Y141.188 E5.8375
G1 X139.028 Y141.335 E5.84909
G1 X138.181 Y141.875 E5.89587
G1 X137.959 Y141.997 E5.90766
G1 X137.056 Y142.42 E5.9541
G1 X136.822 Y142.512 E5.9658
G1 X135.919 Y142.805 E6.01001
G1 X135.679 Y142.867 E6.02155
G1 X134.68 Y143.057 E6.0689
G1 X134.428 Y143.088 E6.08073
G1 X133.62 Y143.145 E6.11844
G1 X133.26 Y143.15 E6.13521
G1 X86.651 Y143.15 E8.30552
G1 X86.155 Y143.134 E8.32863
G1 X85.904 Y143.118 E8.34034
G1 X84.918 Y142.992 E8.38662
G1 X84.67 Y142.944 E8.39839
G1 X83.79 Y142.72 E8.44067
G1 X83.554 Y142.645 E8.4522
G1 X82.601 Y142.271 E8.49987
G1 X82.371 Y142.163 E8.5117
G1 X81.488 Y141.677 E8.55863
G1 X81.275 Y141.541 E8.5704
G1 X80.535 Y141.005 E8.61295
G1 X80.343 Y140.848 E8.6245
G1 X79.554 Y140.106 E8.67493
G1 X79.382 Y139.92 E8.68673
G1 X78.813 Y139.228 E8.72844
G1 X78.666 Y139.027 E8.74004
G1 X78.119 Y138.167 E8.7875
G1 X77.997 Y137.944 E8.79933
G1 X77.579 Y137.048 E8.84537
G1 X77.488 Y136.816 E8.85698
G1 X77.205 Y135.948 E8.89949
G1 X77.142 Y135.708 E8.91104
G1 X76.945 Y134.684 E8.9596
G1 X76.914 Y134.433 E8.97137
G1 X76.861 Y133.784 E9.0017
G1 X76.856 Y133.657 E9.00761
G1 X76.85 Y133.35 E9.02191
G1 X76.85 Y86.651 E11.19641
G1 X76.864 Y86.182 E11.21826
G1 X76.879 Y85.933 E11.22988
G1 X77.006 Y84.926 E11.27714
G1 X77.054 Y84.677 E11.28895
G1 X77.279 Y83.791 E11.33151
G1 X77.354 Y83.555 E11.34304
G1 X77.727 Y82.603 E11.39065
G1 X77.834 Y82.375 E11.40238
G1 X78.317 Y81.497 E11.44904
G1 X78.454 Y81.282 E11.46091
G1 X79.022 Y80.502 E11.50584
G1 X79.18 Y80.311 E11.51738
G1 X79.861 Y79.587 E11.56367
G0 F6000 X80.135 Y79.879
G1 F1200 X80.321 Y79.705 E11.57553
G1 X81.008 Y79.136 E11.61706
G1 X81.209 Y78.989 E11.62866
G1 X82.013 Y78.477 E11.67304
G1 X82.235 Y78.355 E11.68484
G1 X83.056 Y77.967 E11.72712
G1 X83.289 Y77.874 E11.7388
G1 X84.188 Y77.58 E11.78285
G1 X84.429 Y77.518 E11.79443
G1 X85.369 Y77.34 E11.83898
G1 X85.621 Y77.309 E11.8508
G1 X86.387 Y77.255 E11.88656
G1 X86.74 Y77.25 E11.903
G1 X133.349 Y77.25 E14.07331
G1 X133.82 Y77.265 E14.09525
G1 X134.071 Y77.281 E14.10696
G1 X134.973 Y77.394 E14.14929
G1 X135.222 Y77.441 E14.16109
G1 X136.117 Y77.669 E14.2041
G1 X136.353 Y77.745 E14.21564
G1 X137.24 Y78.095 E14.26005
G1 X137.467 Y78.202 E14.27173
G1 X138.255 Y78.634 E14.31358
G1 X138.471 Y78.77 E14.32546
G1 X139.245 Y79.33 E14.36995
G1 X139.436 Y79.488 E14.38149
G1 X140.152 Y80.166 E14.4274
G1 X140.324 Y80.352 E14.4392
G1 X140.864 Y81.008 E14.47876
G1 X141.011 Y81.209 E14.49036
G1 X141.53 Y82.025 E14.53539
G1 X141.652 Y82.248 E14.54723
G1 X142.049 Y83.098 E14.59091
G1 X142.14 Y83.33 E14.60251
G1 X142.409 Y84.153 E14.64283
G1 X142.472 Y84.393 E14.65439
G1 X142.658 Y85.361 E14.70028
G1 X142.689 Y85.611 E14.71202
G1 X142.739 Y86.233 E14.74107
G1 X142.744 Y86.361 E14.74704
G1 X142.75 Y86.65 E14.7605
G1 X142.75 Y133.258 E16.93076
G1 X142.743 Y133.584 E16.94594
G1 X142.728 Y133.924 E16.96179
G1 X142.601 Y134.999 E17.0122
G1 X142.553 Y135.248 E17.024
G1 X142.339 Y136.088 E17.06437
G1 X142.264 Y136.324 E17.0759
G1 X141.911 Y137.227 E17.12104
G1 X141.804 Y137.455 E17.13277
G1 X141.346 Y138.288 E17.17704
G1 X141.209 Y138.503 E17.18891
G1 X140.67 Y139.243 E17.23154
G1 X140.512 Y139.434 E17.24308
G1 X139.895 Y140.093 E17.28511
G1 X139.71 Y140.268 E17.29697
G1 X138.993 Y140.865 E17.34042
G1 X138.792 Y141.012 E17.35201
G1 X137.988 Y141.524 E17.3964
G1 X137.766 Y141.646 E17.40819
G1 X136.91 Y142.048 E17.45223
G1 X136.676 Y142.14 E17.46393
G1 X135.819 Y142.418 E17.50589
G1 X135.579 Y142.48 E17.51743
G1 X134.632 Y142.66 E17.56232
G1 X134.38 Y142.691 E17.57414
G1 X133.613 Y142.745 E17.60994
G1 X133.26 Y142.75 E17.62638
G1 X86.651 Y142.75 E19.79669
G1 X86.18 Y142.735 E19.81863
G1 X85.929 Y142.719 E19.83034
G1 X84.994 Y142.599 E19.87424
G1 X84.746 Y142.551 E19.886
G1 X83.911 Y142.338 E19.92613
G1 X83.675 Y142.263 E19.93766
G1 X82.771 Y141.909 E19.98286
G1 X82.541 Y141.801 E19.9947
G1 X81.704 Y141.34 E20.03919
G1 X81.491 Y141.204 E20.05096
G1 X80.789 Y140.696 E20.09131
G1 X80.597 Y140.539 E20.10286
G1 X79.848 Y139.834 E20.15075
G1 X79.676 Y139.648 E20.16255
G1 X79.136 Y138.992 E20.20211
G1 X78.989 Y138.791 E20.21371
G1 X78.47 Y137.975 E20.25874
G1 X78.348 Y137.752 E20.27058
G1 X77.951 Y136.902 E20.31426
G1 X77.86 Y136.67 E20.32586
G1 X77.591 Y135.847 E20.36618
G1 X77.528 Y135.607 E20.37773
G1 X77.342 Y134.635 E20.42382
G1 X77.311 Y134.384 E20.43559
G1 X77.261 Y133.768 E20.46437
G1 X77.256 Y133.641 E20.47029
G1 X77.25 Y133.35 E20.48384
G1 X77.25 Y86.651 E22.65834
G1 X77.263 Y86.206 E22.67907
G1 X77.278 Y85.957 E22.69069
G1 X77.399 Y85.001 E22.73556
G1 X77.447 Y84.752 E22.74737
G1 X77.661 Y83.912 E22.78773
G1 X77.736 Y83.676 E22.79926
G1 X78.089 Y82.773 E22.84441
G1 X78.196 Y82.545 E22.85613
G1 X78.654 Y81.712 E22.9004
G1 X78.791 Y81.497 E22.91227
G1 X79.33 Y80.757 E22.9549
G1 X79.488 Y80.566 E22.96644
G1 X80.135 Y79.879 E23.01038
G0 F6000 X80.408 Y80.171
G1 F1200 X80.594 Y79.997 E23.02224
G1 X81.244 Y79.459 E23.06153
G1 X81.445 Y79.312 E23.07313
G1 X82.206 Y78.827 E23.11515
G1 X82.428 Y78.705 E23.12694
G1 X83.204 Y78.339 E23.1669
G1 X83.437 Y78.246 E23.17858
G1 X84.288 Y77.968 E23.22026
G1 X84.529 Y77.906 E23.23185
G1 X85.418 Y77.737 E23.27399
G1 X85.67 Y77.706 E23.28581
G1 X86.395 Y77.655 E23.31965
G1 X86.74 Y77.65 E23.33572
G1 X133.349 Y77.65 E25.50603
G1 X133.794 Y77.664 E25.52676
G1 X134.045 Y77.68 E25.53847
G1 X134.898 Y77.787 E25.5785
G1 X135.147 Y77.834 E25.5903
G1 X135.995 Y78.05 E25.63105
G1 X136.231 Y78.126 E25.64259
G1 X137.07 Y78.457 E25.68459
G1 X137.297 Y78.564 E25.69628
G1 X138.042 Y78.972 E25.73583
G1 X138.258 Y79.108 E25.74771
G1 X138.99 Y79.638 E25.7898
G1 X139.181 Y79.796 E25.80134
G1 X139.858 Y80.437 E25.84475
G1 X140.03 Y80.623 E25.85655
G1 X140.541 Y81.244 E25.894
G1 X140.688 Y81.445 E25.90559
G1 X141.179 Y82.217 E25.94819
G1 X141.301 Y82.44 E25.96003
G1 X141.677 Y83.244 E26.00136
G1 X141.768 Y83.476 E26.01296
G1 X142.022 Y84.255 E26.05112
G1 X142.085 Y84.495 E26.06267
G1 X142.261 Y85.411 E26.1061
G1 X142.292 Y85.661 E26.11783
G1 X142.34 Y86.249 E26.1453
G1 X142.345 Y86.377 E26.15127
G1 X142.35 Y86.65 E26.16398
G1 X142.35 Y133.258 E28.33425
G1 X142.343 Y133.567 E28.34864
G1 X142.328 Y133.907 E28.36449
G1 X142.208 Y134.923 E28.41212
G1 X142.16 Y135.172 E28.42393
G1 X141.958 Y135.967 E28.46213
G1 X141.883 Y136.203 E28.47366
G1 X141.549 Y137.057 E28.51636
G1 X141.442 Y137.285 E28.52808
G1 X141.008 Y138.073 E28.56997
G1 X140.871 Y138.288 E28.58184
G1 X140.362 Y138.988 E28.62215
G1 X140.204 Y139.179 E28.63369
G1 X139.62 Y139.802 E28.67345
G1 X139.435 Y139.977 E28.68531
G1 X138.757 Y140.542 E28.7264
G1 X138.556 Y140.689 E28.738
G1 X137.795 Y141.174 E28.78002
G1 X137.573 Y141.296 E28.79181
G1 X136.763 Y141.676 E28.83348
G1 X136.529 Y141.768 E28.84518
G1 X135.719 Y142.031 E28.88484
G1 X135.479 Y142.093 E28.89638
G1 X134.583 Y142.263 E28.93885
G1 X134.331 Y142.294 E28.95067
G1 X133.606 Y142.345 E28.98451
G1 X133.26 Y142.35 E29.00062
G1 X86.651 Y142.35 E31.17093
G1 X86.206 Y142.336 E31.19167
G1 X85.955 Y142.32 E31.20338
G1 X85.07 Y142.206 E31.24493
G1 X84.822 Y142.158 E31.25669
G1 X84.032 Y141.957 E31.29465
G1 X83.796 Y141.882 E31.30618
G1 X82.941 Y141.547 E31.34894
G1 X82.711 Y141.439 E31.36077
G1 X81.919 Y141.003 E31.40287
G1 X81.706 Y140.867 E31.41463
G1 X81.042 Y140.386 E31.45281
G1 X80.85 Y140.229 E31.46436
G1 X80.142 Y139.563 E31.50962
G1 X79.97 Y139.377 E31.52142
G1 X79.459 Y138.756 E31.55887
G1 X79.312 Y138.555 E31.57046
G1 X78.821 Y137.783 E31.61306
G1 X78.699 Y137.56 E31.6249
G1 X78.323 Y136.756 E31.66623
G1 X78.232 Y136.524 E31.67783
G1 X77.978 Y135.745 E31.71599
G1 X77.915 Y135.505 E31.72754
G1 X77.739 Y134.586 E31.77111
G1 X77.708 Y134.335 E31.78289
G1 X77.66 Y133.752 E31.81013
G1 X77.655 Y133.625 E31.81604
G1 X77.65 Y133.35 E31.82885
G1 X77.65 Y86.651 E34.00335
G1 X77.663 Y86.23 E34.02297
G1 X77.678 Y85.981 E34.03458
G1 X77.792 Y85.077 E34.07701
G1 X77.84 Y84.828 E34.08882
G1 X78.042 Y84.033 E34.12701
G1 X78.117 Y83.797 E34.13854
G1 X78.451 Y82.943 E34.18124
G1 X78.558 Y82.715 E34.19297
G1 X78.992 Y81.927 E34.23486
G1 X79.129 Y81.712 E34.24673
G1 X79.638 Y81.012 E34.28703
G1 X79.796 Y80.821 E34.29857
G1 X80.408 Y80.171 E34.34014
G0 F6000 X80.681 Y80.463
G1 F1200 X80.867 Y80.289 E34.352
G1 X81.48 Y79.782 E34.38905
G1 X81.681 Y79.635 E34.40064
G1 X82.398 Y79.178 E34.44023
G1 X82.62 Y79.056 E34.45203
G1 X83.352 Y78.71 E34.48973
G1 X83.585 Y78.617 E34.50141
G1 X84.388 Y78.355 E34.54074
G1 X84.629 Y78.293 E34.55233
G1 X85.467 Y78.134 E34.59205
G1 X85.719 Y78.103 E34.60387
G1 X86.402 Y78.055 E34.63575
G1 X86.74 Y78.05 E34.65149
G1 X133.349 Y78.05 E36.8218
G1 X133.769 Y78.063 E36.84137
G1 X134.02 Y78.079 E36.85308
G1 X134.824 Y78.181 E36.89082
G1 X135.073 Y78.228 E36.90262
G1 X135.872 Y78.431 E36.941
G1 X136.108 Y78.507 E36.95255
G1 X136.899 Y78.819 E36.99214
G1 X137.126 Y78.926 E37.00383
G1 X137.829 Y79.311 E37.04115
G1 X138.045 Y79.447 E37.05303
G1 X138.735 Y79.946 E37.09269
G1 X138.926 Y80.104 E37.10423
G1 X139.565 Y80.709 E37.1452
G1 X139.737 Y80.895 E37.157
G1 X140.218 Y81.48 E37.19226
G1 X140.365 Y81.681 E37.20386
G1 X140.828 Y82.409 E37.24403
G1 X140.95 Y82.632 E37.25587
G1 X141.304 Y83.39 E37.29482
G1 X141.395 Y83.622 E37.30643
G1 X141.635 Y84.356 E37.34239
G1 X141.698 Y84.596 E37.35394
G1 X141.864 Y85.46 E37.39491
G1 X141.895 Y85.71 E37.40664
G1 X141.94 Y86.264 E37.43252
G1 X141.945 Y86.392 E37.43849
G1 X141.95 Y86.65 E37.4505
G1 X141.95 Y133.258 E39.62077
G1 X141.944 Y133.549 E39.63432
G1 X141.929 Y133.889 E39.65017
G1 X141.816 Y134.847 E39.69508
G1 X141.768 Y135.096 E39.70689
G1 X141.577 Y135.846 E39.74293
G1 X141.502 Y136.082 E39.75446
G1 X141.187 Y136.887 E39.79471
G1 X141.08 Y137.115 E39.80644
G1 X140.671 Y137.858 E39.84593
G1 X140.534 Y138.073 E39.8578
G1 X140.054 Y138.733 E39.8958
G1 X139.896 Y138.924 E39.90735
G1 X139.346 Y139.512 E39.94484
G1 X139.161 Y139.687 E39.95669
G1 X138.521 Y140.219 E39.99545
G1 X138.32 Y140.366 E40.00704
G1 X137.603 Y140.823 E40.04663
G1 X137.381 Y140.945 E40.05843
G1 X136.617 Y141.303 E40.09772
G1 X136.383 Y141.395 E40.10942
G1 X135.619 Y141.643 E40.14683
G1 X135.379 Y141.705 E40.15837
G1 X134.534 Y141.866 E40.19842
G1 X134.282 Y141.897 E40.21025
G1 X133.598 Y141.945 E40.24217
G1 X133.26 Y141.95 E40.25791
G1 X86.651 Y141.95 E42.42822
G1 X86.231 Y141.937 E42.44779
G1 X85.98 Y141.921 E42.4595
G1 X85.146 Y141.814 E42.49866
G1 X84.898 Y141.766 E42.51042
G1 X84.153 Y141.576 E42.54622
G1 X83.917 Y141.501 E42.55775
G1 X83.111 Y141.185 E42.59806
G1 X82.881 Y141.077 E42.60989
G1 X82.134 Y140.666 E42.64959
G1 X81.921 Y140.53 E42.66136
G1 X81.295 Y140.076 E42.69737
G1 X81.103 Y139.919 E42.70892
G1 X80.435 Y139.291 E42.75161
G1 X80.263 Y139.105 E42.76341
G1 X79.782 Y138.52 E42.79867
G1 X79.635 Y138.319 E42.81027
G1 X79.172 Y137.591 E42.85044
G1 X79.05 Y137.368 E42.86228
G1 X78.696 Y136.61 E42.90123
G1 X78.605 Y136.378 E42.91284
G1 X78.365 Y135.644 E42.9488
G1 X78.302 Y135.404 E42.96035
G1 X78.136 Y134.537 E43.00145
G1 X78.105 Y134.286 E43.01323
G1 X78.06 Y133.737 E43.03888
G1 X78.055 Y133.61 E43.0448
G1 X78.05 Y133.35 E43.05691
G1 X78.05 Y86.651 E45.23141
G1 X78.062 Y86.254 E45.2499
G1 X78.077 Y86.005 E45.26152
G1 X78.184 Y85.153 E45.3015
G1 X78.232 Y84.904 E45.31331
G1 X78.423 Y84.154 E45.34935
G1 X78.498 Y83.918 E45.36088
G1 X78.813 Y83.113 E45.40113
G1 X78.92 Y82.885 E45.41286
G1 X79.329 Y82.142 E45.45235
G1 X79.466 Y81.927 E45.46422
G1 X79.946 Y81.267 E45.50222
G1 X80.104 Y81.076 E45.51376
G1 X80.681 Y80.463 E45.55296
G0 F6000 X80.954 Y80.755
G1 F1200 X81.14 Y80.581 E45.56482
G1 X81.716 Y80.105 E45.59962
G1 X81.917 Y79.958 E45.61121
G1 X82.591 Y79.528 E45.64844
G1 X82.813 Y79.406 E45.66024
G1 X83.501 Y79.082 E45.69565
G1 X83.734 Y78.989 E45.70733
G1 X84.487 Y78.743 E45.74422
G1 X84.728 Y78.681 E45.7558
G1 X85.516 Y78.531 E45.79315
G1 X85.768 Y78.5 E45.80498
G1 X86.41 Y78.455 E45.83494
G1 X86.74 Y78.45 E45.85031
G1 X133.349 Y78.45 E48.02062
G1 X133.743 Y78.463 E48.03898
G1 X133.994 Y78.479 E48.05069
G1 X134.75 Y78.574 E48.08617
G1 X134.999 Y78.621 E48.09797
G1 X135.749 Y78.811 E48.134
G1 X135.985 Y78.887 E48.14554
G1 X136.729 Y79.181 E48.18279
G1 X136.956 Y79.288 E48.19448
G1 X137.615 Y79.649 E48.22946
G1 X137.831 Y79.785 E48.24135
G1 X138.48 Y80.255 E48.27866
G1 X138.671 Y80.413 E48.2902
G1 X139.271 Y80.981 E48.32868
G1 X139.443 Y81.167 E48.34047
G1 X139.895 Y81.716 E48.37359
G1 X140.042 Y81.917 E48.38518
G1 X140.477 Y82.601 E48.42293
G1 X140.599 Y82.824 E48.43476
G1 X140.932 Y83.536 E48.47136
G1 X141.023 Y83.768 E48.48297
G1 X141.248 Y84.458 E48.51676
G1 X141.311 Y84.698 E48.52832
G1 X141.467 Y85.509 E48.56677
G1 X141.498 Y85.759 E48.5785
G1 X141.54 Y86.28 E48.60284
G1 X141.55 Y86.65 E48.62008
G1 X141.55 Y133.258 E50.79034
G1 X141.544 Y133.531 E50.80305
G1 X141.529 Y133.871 E50.8189
G1 X141.423 Y134.772 E50.86115
G1 X141.375 Y135.021 E50.87295
G1 X141.196 Y135.725 E50.90678
G1 X141.121 Y135.961 E50.91831
G1 X140.825 Y136.717 E50.95611
G1 X140.718 Y136.945 E50.96784
G1 X140.334 Y137.643 E51.00494
G1 X140.197 Y137.858 E51.01681
G1 X139.745 Y138.478 E51.05253
