;FLAVOR:Marlin
;TIME:2531
;Filament used: 2.73352m
;Layer height: 0.2
;MINX:73.8
;MINY:73.8
;MINZ:0.2
;MAXX:146.2
;MAXY:146.2
;MAXZ:6
;Generated with Cura_SteamEngine 4.8.0
M140 S60
M105
M190 S60
M104 S200
M105
M109 S200
M82 ;absolute extrusion mode
; --- Global Settings
; layer_height = 0.2
; smooth_spiralized_contours = True
; magic_mesh_surface_mode = normal
; machine_extruder_count = 1
; --- Single Extruder Settings
; speed_z_hop = 5
; retraction_amount = 5
; retraction_hop = 0.2
; retraction_hop_enabled = False
; retraction_enable = True
; retraction_speed = 45
; retraction_retract_speed = 45
; retraction_prime_speed = 45
; speed_travel = 200.0

M201 X500.00 Y500.00 Z100.00 E5000.00 ;Setup machine max acceleration
M203 X500.00 Y500.00 Z10.00 E50.00 ;Setup machine max feedrate
M204 P500.00 R1000.00 T500.00 ;Setup Print/Retract/Travel acceleration
M205 X8.00 Y8.00 Z0.40 E5.00 ;Setup Jerk
M220 S100 ;Reset Feedrate
M221 S100 ;Reset Flowrate

G28 ;Home

G92 E0 ;Reset Extruder
G1 Z2.0 F3000 ;Move Z Axis up
G1 X10.1 Y20 Z0.28 F5000.0 ;Move to start position
G1 X10.1 Y200.0 Z0.28 F1500.0 E15 ;Draw the first line
G1 X10.4 Y200.0 Z0.28 F5000.0 ;Move to side a little
G1 X10.4 Y20 Z0.28 F1500.0 E30 ;Draw the second line
G92 E0 ;Reset Extruder
G1 Z2.0 F3000 ;Move Z Axis up
G92 E0
G92 E0
G1 F2700 E-5
;LAYER_COUNT:30
;LAYER:0
M107
G0 F6000 X77.78 Y77.753 Z0.2
;TYPE:SKIRT
G1 F2700 E0
G1 F1200 X78.058 Y77.483 E0.01289
G1 X79.008 Y76.66 E0.05469
G1 X79.069 Y76.613 E0.05726
G1 X79.432 Y76.346 E0.07224
G1 X79.613 Y76.218 E0.07962
G1 X80.598 Y75.597 E0.11835
G1 X80.802 Y75.483 E0.12612
G1 X81.885 Y74.953 E0.16622
G1 X82.176 Y74.83 E0.17673
G1 X83.055 Y74.502 E0.20793
G1 X83.523 Y74.361 E0.22419
G1 X83.931 Y74.248 E0.23827
G1 X84.845 Y74.037 E0.26947
G1 X85.495 Y73.935 E0.29135
G1 X85.67 Y73.913 E0.29722
G1 X86.476 Y73.842 E0.32413
G1 X86.767 Y73.827 E0.33382
G1 X87.159 Y73.813 E0.34687
G1 X87.917 Y73.801 E0.37208
G1 X131.998 Y73.8 E1.83822
G1 X132.65 Y73.808 E1.85991
G1 X132.998 Y73.818 E1.87149
G1 X133.479 Y73.84 E1.88751
G1 X134.816 Y73.984 E1.93223
G1 X135.146 Y74.04 E1.94336
G1 X136.063 Y74.236 E1.97455
G1 X136.608 Y74.392 E1.99341
G1 X136.859 Y74.471 E2.00216
G1 X138.055 Y74.926 E2.04472
G1 X138.392 Y75.077 E2.057
G1 X139.231 Y75.496 E2.08819
G1 X139.676 Y75.757 E2.10535
G1 X139.833 Y75.854 E2.11149
G1 X140.889 Y76.596 E2.15442
G1 X141.238 Y76.873 E2.16924
G1 X142.266 Y77.8 E2.21528
G1 X142.484 Y78.023 E2.22565
G1 X143.11 Y78.72 E2.25681
G1 X143.459 Y79.167 E2.27567
G1 X143.573 Y79.321 E2.28204
G1 X144.255 Y80.36 E2.32338
G1 X144.451 Y80.699 E2.3364
G1 X145.054 Y81.908 E2.38134
G1 X145.169 Y82.179 E2.39113
G1 X145.498 Y83.057 E2.42232
G1 X145.635 Y83.507 E2.43796
G1 X145.739 Y83.878 E2.45078
G1 X145.953 Y84.791 E2.48197
G1 X146.056 Y85.438 E2.50376
G1 X146.083 Y85.647 E2.51077
G1 X146.155 Y86.41 E2.53626
G1 X146.161 Y86.512 E2.53965
G1 X146.178 Y86.949 E2.5542
G1 X146.198 Y88.003 E2.58926
G1 X146.2 Y88.212 E2.59621
G1 X146.199 Y132.11 E4.05627
G1 X146.191 Y132.701 E4.07593
G1 X146.181 Y133.048 E4.08747
G1 X146.163 Y133.447 E4.10076
G1 X146.02 Y134.783 E4.14545
G1 X145.957 Y135.156 E4.15803
G1 X145.762 Y136.073 E4.18921
G1 X145.595 Y136.653 E4.20928
G1 X145.528 Y136.864 E4.21665
G1 X145.103 Y137.986 E4.25655
G1 X144.98 Y138.264 E4.26666
G1 X144.565 Y139.104 E4.29783
G1 X144.329 Y139.512 E4.3135
G1 X144.097 Y139.895 E4.3284
G1 X143.578 Y140.676 E4.35958
G1 X143.148 Y141.228 E4.38286
G1 X143.015 Y141.388 E4.38978
G1 X142.246 Y142.221 E4.42748
G1 X141.977 Y142.484 E4.44
G1 X141.049 Y143.295 E4.48099
G1 X140.981 Y143.348 E4.48386
G1 X140.57 Y143.653 E4.50088
G1 X140.389 Y143.781 E4.50825
G1 X139.4 Y144.405 E4.54715
G1 X139.194 Y144.52 E4.55499
G1 X138.115 Y145.047 E4.59493
G1 X137.824 Y145.17 E4.60544
G1 X136.945 Y145.498 E4.63664
G1 X136.477 Y145.639 E4.6529
G1 X136.069 Y145.752 E4.66698
G1 X135.155 Y145.963 E4.69818
G1 X134.505 Y146.065 E4.72007
G1 X134.33 Y146.087 E4.72593
G1 X133.524 Y146.158 E4.75284
G1 X133.233 Y146.173 E4.76254
G1 X132.841 Y146.187 E4.77558
G1 X132.083 Y146.199 E4.8008
G1 X88.002 Y146.2 E6.26694
G1 X87.35 Y146.192 E6.28862
G1 X87.002 Y146.182 E6.3002
G1 X86.521 Y146.16 E6.31622
G1 X85.184 Y146.016 E6.36094
G1 X84.854 Y145.96 E6.37208
G1 X83.937 Y145.764 E6.40326
G1 X83.392 Y145.608 E6.42212
G1 X83.141 Y145.529 E6.43087
G1 X81.943 Y145.073 E6.47351
G1 X81.604 Y144.921 E6.48586
G1 X80.765 Y144.501 E6.51707
G1 X80.312 Y144.236 E6.53452
G1 X80.157 Y144.14 E6.54059
G1 X79.111 Y143.404 E6.58313
G1 X78.762 Y143.127 E6.59795
G1 X77.752 Y142.218 E6.64314
G1 X77.533 Y141.995 E6.65354
G1 X76.905 Y141.299 E6.68472
G1 X76.507 Y140.788 E6.70626
G1 X76.392 Y140.631 E6.71273
G1 X75.738 Y139.628 E6.75256
G1 X75.543 Y139.29 E6.76554
G1 X74.939 Y138.077 E6.81061
G1 X74.824 Y137.805 E6.82043
G1 X74.363 Y136.486 E6.8669
G1 X74.26 Y136.118 E6.87961
G1 X74.046 Y135.205 E6.9108
G1 X73.942 Y134.549 E6.93289
G1 X73.915 Y134.338 E6.93997
G1 X73.843 Y133.547 E6.96638
G1 X73.837 Y133.438 E6.97001
G1 X73.822 Y133.039 E6.98329
G1 X73.802 Y131.969 E7.01889
G1 X73.8 Y131.763 E7.02574
G1 X73.801 Y87.85 E8.48629
G1 X73.809 Y87.291 E8.50489
G1 X73.819 Y86.952 E8.51617
G1 X73.837 Y86.553 E8.52945
G1 X73.973 Y85.255 E8.57286
G1 X74.033 Y84.892 E8.5851
G1 X74.226 Y83.974 E8.6163
G1 X74.405 Y83.347 E8.63798
G1 X74.477 Y83.121 E8.64587
G1 X74.902 Y82.003 E8.68565
G1 X75.023 Y81.73 E8.69559
G1 X75.671 Y80.488 E8.74218
G1 X75.903 Y80.105 E8.75707
G1 X76.422 Y79.324 E8.78826
G1 X76.852 Y78.772 E8.81154
G1 X76.985 Y78.612 E8.81846
G1 X77.78 Y77.753 E8.85738
G0 F6000 X78.059 Y78.04
G1 F1200 X78.337 Y77.77 E8.87027
G1 X79.252 Y76.977 E8.91055
G1 X79.663 Y76.672 E8.92757
G1 X79.844 Y76.544 E8.93494
G1 X80.793 Y75.946 E8.97225
G1 X80.997 Y75.832 E8.98002
G1 X82.041 Y75.321 E9.01868
G1 X82.332 Y75.198 E9.02919
G1 X83.63 Y74.747 E9.07489
G1 X84.038 Y74.634 E9.08897
G1 X84.935 Y74.427 E9.11959
G1 X85.545 Y74.332 E9.14013
G1 X85.72 Y74.31 E9.14599
G1 X86.496 Y74.241 E9.1719
G1 X86.787 Y74.226 E9.1816
G1 X87.165 Y74.213 E9.19417
G1 X88.091 Y74.2 E9.22498
G1 X131.998 Y74.2 E10.68533
G1 X132.644 Y74.208 E10.70682
G1 X132.979 Y74.218 E10.71796
G1 X133.46 Y74.24 E10.73398
G1 X134.749 Y74.378 E10.7771
G1 X135.079 Y74.434 E10.78823
G1 X135.98 Y74.628 E10.81888
G1 X136.488 Y74.774 E10.83646
G1 X136.739 Y74.853 E10.84522
G1 X137.891 Y75.291 E10.88621
G1 X138.228 Y75.442 E10.89849
G1 X139.051 Y75.854 E10.9291
G1 X139.465 Y76.097 E10.94507
G1 X139.622 Y76.194 E10.95121
G1 X140.641 Y76.909 E10.99261
G1 X140.99 Y77.186 E11.00743
G1 X141.98 Y78.079 E11.05177
G1 X142.198 Y78.302 E11.06214
G1 X142.812 Y78.988 E11.09277
G1 X143.138 Y79.405 E11.11037
G1 X143.252 Y79.559 E11.11674
G1 X143.909 Y80.56 E11.15657
G1 X144.105 Y80.899 E11.16959
G1 X144.686 Y82.064 E11.21289
G1 X144.801 Y82.335 E11.22268
G1 X145.25 Y83.615 E11.2678
G1 X145.354 Y83.986 E11.28061
G1 X145.563 Y84.882 E11.31121
G1 X145.66 Y85.489 E11.33166
G1 X145.687 Y85.698 E11.33867
G1 X145.756 Y86.434 E11.36326
G1 X145.762 Y86.536 E11.36665
G1 X145.778 Y86.957 E11.38067
G1 X145.798 Y88.011 E11.41573
G1 X145.8 Y88.212 E11.42241
G1 X145.799 Y132.104 E12.88227
G1 X145.791 Y132.695 E12.90193
G1 X145.781 Y133.03 E12.91307
G1 X145.763 Y133.429 E12.92636
G1 X145.626 Y134.716 E12.96941
G1 X145.563 Y135.089 E12.98199
G1 X145.37 Y135.99 E13.01264
G1 X145.214 Y136.532 E13.03139
G1 X145.147 Y136.743 E13.03876
G1 X144.738 Y137.824 E13.0772
G1 X144.615 Y138.102 E13.08731
G1 X143.987 Y139.305 E13.13245
G1 X143.755 Y139.688 E13.14734
G1 X143.245 Y140.454 E13.17795
G1 X142.84 Y140.972 E13.19982
G1 X142.707 Y141.132 E13.20674
G1 X141.966 Y141.935 E13.24308
G1 X141.697 Y142.198 E13.25559
G1 X140.803 Y142.98 E13.2951
G1 X140.735 Y143.033 E13.29796
G1 X140.339 Y143.327 E13.31437
G1 X140.158 Y143.455 E13.32174
G1 X139.205 Y144.055 E13.3592
G1 X138.999 Y144.17 E13.36704
G1 X137.959 Y144.679 E13.40555
G1 X137.668 Y144.802 E13.41606
G1 X136.37 Y145.253 E13.46177
G1 X135.962 Y145.366 E13.47585
G1 X135.065 Y145.573 E13.50646
G1 X134.455 Y145.668 E13.527
G1 X134.28 Y145.69 E13.53286
G1 X133.504 Y145.759 E13.55878
G1 X133.213 Y145.774 E13.56847
G1 X132.835 Y145.787 E13.58105
G1 X131.909 Y145.8 E13.61185
G1 X87.853 Y145.799 E15.07716
G1 X87.356 Y145.792 E15.09369
G1 X87.021 Y145.782 E15.10484
G1 X86.54 Y145.76 E15.12085
G1 X85.251 Y145.622 E15.16397
G1 X84.921 Y145.566 E15.1751
G1 X84.02 Y145.372 E15.20576
G1 X83.512 Y145.226 E15.22334
G1 X83.261 Y145.147 E15.23209
G1 X82.106 Y144.708 E15.27318
G1 X81.767 Y144.556 E15.28554
G1 X80.944 Y144.143 E15.31617
G1 X80.523 Y143.896 E15.3324
G1 X80.368 Y143.8 E15.33847
G1 X79.359 Y143.091 E15.37948
G1 X79.01 Y142.814 E15.3943
G1 X78.037 Y141.938 E15.43785
G1 X77.818 Y141.715 E15.44824
G1 X77.202 Y141.031 E15.47886
G1 X76.83 Y140.552 E15.49903
G1 X76.715 Y140.395 E15.5055
G1 X76.084 Y139.428 E15.54391
G1 X75.889 Y139.09 E15.55689
G1 X75.308 Y137.921 E15.60031
G1 X75.193 Y137.649 E15.61013
G1 X74.748 Y136.378 E15.65492
G1 X74.645 Y136.01 E15.66763
G1 X74.436 Y135.114 E15.69823
G1 X74.339 Y134.498 E15.71897
G1 X74.312 Y134.287 E15.72604
G1 X74.242 Y133.525 E15.75149
G1 X74.236 Y133.416 E15.75513
G1 X74.222 Y133.031 E15.76794
G1 X74.202 Y131.961 E15.80353
G1 X74.2 Y131.763 E15.81012
G1 X74.201 Y87.855 E17.27051
G1 X74.209 Y87.296 E17.2891
G1 X74.219 Y86.97 E17.29995
G1 X74.237 Y86.571 E17.31323
G1 X74.368 Y85.32 E17.35507
G1 X74.428 Y84.957 E17.36731
G1 X74.617 Y84.056 E17.39793
G1 X74.786 Y83.468 E17.41827
G1 X74.858 Y83.242 E17.42616
G1 X75.267 Y82.165 E17.46448
G1 X75.388 Y81.892 E17.47441
G1 X76.013 Y80.695 E17.51932
G1 X76.245 Y80.312 E17.53422
G1 X76.755 Y79.546 E17.56483
G1 X77.16 Y79.028 E17.5867
G1 X77.293 Y78.868 E17.59362
G1 X78.059 Y78.04 E17.63113
G0 F6000 X78.338 Y78.327
G1 F1200 X78.616 Y78.057 E17.64402
G1 X79.497 Y77.294 E17.68279
G1 X79.894 Y76.999 E17.69924
G1 X80.075 Y76.871 E17.70661
G1 X80.988 Y76.295 E17.74251
G1 X81.192 Y76.181 E17.75029
G1 X82.197 Y75.69 E17.78749
G1 X82.488 Y75.567 E17.798
G1 X83.736 Y75.132 E17.84195
G1 X84.144 Y75.019 E17.85604
G1 X85.025 Y74.817 E17.8861
G1 X85.595 Y74.729 E17.90528
G1 X85.77 Y74.707 E17.91115
G1 X86.517 Y74.641 E17.93609
G1 X86.808 Y74.626 E17.94578
G1 X87.172 Y74.613 E17.9579
G1 X88.091 Y74.6 E17.98846
G1 X131.998 Y74.6 E19.44882
G1 X132.639 Y74.608 E19.47014
G1 X132.961 Y74.618 E19.48085
G1 X133.442 Y74.64 E19.49687
G1 X134.683 Y74.773 E19.53838
G1 X135.013 Y74.829 E19.54951
G1 X135.895 Y75.019 E19.57952
G1 X136.368 Y75.156 E19.5959
G1 X136.619 Y75.235 E19.60465
G1 X137.728 Y75.656 E19.64411
G1 X138.065 Y75.807 E19.65639
G1 X139.255 Y76.438 E19.70119
G1 X139.412 Y76.535 E19.70733
G1 X140.392 Y77.223 E19.74715
G1 X140.741 Y77.5 E19.76197
G1 X141.694 Y78.359 E19.80464
G1 X141.912 Y78.582 E19.81502
G1 X142.514 Y79.255 E19.84505
G1 X142.816 Y79.643 E19.8614
G1 X142.93 Y79.797 E19.86778
G1 X143.562 Y80.761 E19.90611
G1 X143.758 Y81.1 E19.91914
G1 X144.318 Y82.221 E19.96082
G1 X144.433 Y82.492 E19.97061
G1 X144.864 Y83.723 E20.01399
G1 X144.968 Y84.094 E20.0268
G1 X145.173 Y84.973 E20.05682
G1 X145.263 Y85.54 E20.07592
G1 X145.29 Y85.749 E20.08293
G1 X145.356 Y86.457 E20.10658
G1 X145.362 Y86.559 E20.10998
G1 X145.378 Y86.964 E20.12346
G1 X145.398 Y88.018 E20.15852
G1 X145.4 Y88.212 E20.16497
G1 X145.399 Y132.099 E21.62466
G1 X145.391 Y132.69 E21.64432
G1 X145.382 Y133.012 E21.65503
G1 X145.364 Y133.411 E21.66832
G1 X145.232 Y134.65 E21.70976
G1 X145.169 Y135.023 E21.72234
G1 X144.979 Y135.906 E21.75238
G1 X144.833 Y136.411 E21.76987
G1 X144.766 Y136.622 E21.77723
G1 X144.372 Y137.662 E21.81422
G1 X144.249 Y137.94 E21.82433
G1 X143.645 Y139.098 E21.86777
G1 X143.413 Y139.481 E21.88266
G1 X142.912 Y140.232 E21.91269
G1 X142.533 Y140.716 E21.93314
G1 X142.4 Y140.876 E21.94006
G1 X141.687 Y141.649 E21.97503
G1 X141.418 Y141.912 E21.98754
G1 X140.557 Y142.664 E22.02557
G1 X140.489 Y142.717 E22.02843
G1 X140.108 Y143 E22.04422
G1 X139.927 Y143.128 E22.05159
G1 X139.01 Y143.706 E22.08765
G1 X138.804 Y143.821 E22.09549
G1 X137.803 Y144.31 E22.13255
G1 X137.512 Y144.433 E22.14305
G1 X136.264 Y144.868 E22.18701
G1 X135.856 Y144.981 E22.20109
G1 X134.975 Y145.183 E22.23116
G1 X134.405 Y145.271 E22.25034
G1 X134.23 Y145.293 E22.2562
G1 X133.483 Y145.359 E22.28115
G1 X133.192 Y145.374 E22.29084
G1 X132.828 Y145.387 E22.30295
G1 X131.909 Y145.4 E22.33352
G1 X87.858 Y145.399 E23.79866
G1 X87.361 Y145.392 E23.8152
G1 X87.039 Y145.382 E23.82591
G1 X86.558 Y145.36 E23.84193
G1 X85.317 Y145.227 E23.88344
G1 X84.987 Y145.171 E23.89457
G1 X84.105 Y144.981 E23.92458
G1 X83.632 Y144.844 E23.94096
G1 X83.381 Y144.765 E23.94971
G1 X82.27 Y144.343 E23.98924
G1 X81.931 Y144.191 E24.00159
G1 X81.124 Y143.786 E24.03163
G1 X80.733 Y143.556 E24.04671
G1 X80.578 Y143.46 E24.05278
G1 X79.608 Y142.777 E24.09224
G1 X79.259 Y142.5 E24.10705
G1 X78.323 Y141.658 E24.14893
G1 X78.104 Y141.435 E24.15932
G1 X77.5 Y140.763 E24.18938
G1 X77.152 Y140.315 E24.20824
G1 X77.037 Y140.158 E24.21472
G1 X76.431 Y139.228 E24.25164
G1 X76.236 Y138.89 E24.26462
G1 X75.676 Y137.765 E24.30641
G1 X75.561 Y137.493 E24.31623
G1 X75.133 Y136.27 E24.35933
G1 X75.03 Y135.902 E24.37204
G1 X74.826 Y135.023 E24.40205
G1 X74.735 Y134.448 E24.42142
G1 X74.708 Y134.237 E24.42849
G1 X74.641 Y133.503 E24.45301
G1 X74.635 Y133.394 E24.45664
G1 X74.622 Y133.024 E24.46895
G1 X74.6 Y131.763 E24.5109
G1 X74.601 Y87.861 E25.97108
G1 X74.609 Y87.302 E25.98968
G1 X74.618 Y86.988 E26.00013
G1 X74.636 Y86.589 E26.01341
G1 X74.763 Y85.386 E26.05365
G1 X74.823 Y85.023 E26.06588
G1 X75.009 Y84.139 E26.09593
G1 X75.167 Y83.59 E26.11493
G1 X75.239 Y83.364 E26.12282
G1 X75.633 Y82.327 E26.15971
G1 X75.754 Y82.054 E26.16965
G1 X76.355 Y80.902 E26.21286
G1 X76.587 Y80.519 E26.22776
G1 X77.088 Y79.768 E26.25778
G1 X77.467 Y79.284 E26.27823
G1 X77.6 Y79.124 E26.28515
G1 X78.338 Y78.327 E26.32128
G1 F2700 E21.32128
;MESH:leg_insert.stl
G0 F6000 X84.159 Y86.913
G0 X85.219 Y87.324
G0 X85.575 Y132.802
G0 X85.658 Y133.234
G0 X85.973 Y133.805
G0 X87.062 Y134.584
;TYPE:WALL-INNER
G1 F2700 E26.32128
G1 F1200 X86.603 Y134.465 E26.33705
G1 X86.184 Y134.236 E26.35293
G1 X85.845 Y133.92 E26.36834
G1 X85.697 Y133.716 E26.37673
G1 X85.495 Y133.287 E26.3925
G1 X85.405 Y132.82 E26.40832
G1 X85.4 Y132.684 E26.41284
G1 X85.4 Y87.312 E27.92192
G1 X85.459 Y86.829 E27.9381
G1 X85.633 Y86.389 E27.95384
G1 X85.91 Y86.009 E27.96948
G1 X86.286 Y85.695 E27.98578
G1 X86.72 Y85.492 E28.00171
G1 X87.184 Y85.404 E28.01742
G1 X87.319 Y85.4 E28.02191
G1 X132.682 Y85.4 E29.53069
G1 X132.938 Y85.416 E29.53922
G1 X133.397 Y85.535 E29.55499
G1 X133.816 Y85.764 E29.57087
G1 X134.155 Y86.08 E29.58629
G1 X134.303 Y86.284 E29.59467
G1 X134.505 Y86.713 E29.61044
G1 X134.595 Y87.179 E29.62623
G1 X134.6 Y87.315 E29.63075
G1 X134.6 Y132.688 E31.13987
G1 X134.541 Y133.171 E31.15605
G1 X134.369 Y133.607 E31.17164
G1 X134.245 Y133.803 E31.17935
G1 X134.085 Y133.996 E31.18769
G1 X133.714 Y134.305 E31.20375
G1 X133.28 Y134.508 E31.21969
G1 X132.816 Y134.596 E31.23539
G1 X132.681 Y134.6 E31.23989
G1 X87.318 Y134.6 E32.74867
G1 X87.062 Y134.584 E32.7572
G0 F6000 X87.012 Y134.981
;TYPE:WALL-OUTER
G1 F1200 X86.724 Y134.927 E32.76694
G1 X86.455 Y134.838 E32.77637
G1 X86.193 Y134.716 E32.78598
G1 X85.949 Y134.561 E32.79559
G1 X85.721 Y134.372 E32.80544
G1 X85.537 Y134.177 E32.81436
G1 X85.359 Y133.932 E32.82443
G1 X85.224 Y133.688 E32.83371
G1 X85.116 Y133.417 E32.84341
G1 X85.042 Y133.131 E32.85324
G1 X85.006 Y132.853 E32.86256
G1 X85 Y132.7 E32.86765
G1 X85 Y87.312 E34.37726
G1 X85.018 Y87.017 E34.38709
G1 X85.071 Y86.73 E34.3968
G1 X85.159 Y86.46 E34.40625
G1 X85.282 Y86.197 E34.4159
G1 X85.435 Y85.954 E34.42545
G1 X85.621 Y85.731 E34.43511
G1 X85.833 Y85.529 E34.44485
G1 X86.073 Y85.355 E34.45471
G1 X86.317 Y85.221 E34.46397
G1 X86.589 Y85.113 E34.4737
G1 X86.874 Y85.04 E34.48349
G1 X87.153 Y85.005 E34.49284
G1 X87.306 Y85 E34.49793
G1 X132.692 Y85 E36.00748
G1 X132.988 Y85.019 E36.01734
G1 X133.276 Y85.073 E36.02709
G1 X133.545 Y85.162 E36.03651
G1 X133.807 Y85.284 E36.04613
G1 X134.051 Y85.439 E36.05574
G1 X134.279 Y85.628 E36.06559
G1 X134.463 Y85.823 E36.07451
