;FLAVOR:Marlin
;TIME:1856
;Filament used: 2.51046m
;Layer height: 0.28
;MINX:73.8
;MINY:73.8
;MINZ:0.2
;MAXX:146.2
;MAXY:146.2
;MAXZ:5.8
;Generated with Cura_SteamEngine 4.8.0
M140 S60
M105
M190 S60
M104 S200
M105
M109 S200
M82 ;absolute extrusion mode
; --- Global Settings
; layer_height = 0.28
; smooth_spiralized_contours = True
; magic_mesh_surface_mode = normal
; machine_extruder_count = 1
; --- Single Extruder Settings
; speed_z_hop = 5
; retraction_amount = 5
; retraction_hop = 0.2
; retraction_hop_enabled = False
; retraction_enable = True
; retraction_speed = 45
; retraction_retract_speed = 45
; retraction_prime_speed = 45
; speed_travel = 250.0

M201 X500.00 Y500.00 Z100.00 E5000.00 ;Setup machine max acceleration
M203 X500.00 Y500.00 Z10.00 E50.00 ;Setup machine max feedrate
M204 P500.00 R1000.00 T500.00 ;Setup Print/Retract/Travel acceleration
M205 X8.00 Y8.00 Z0.40 E5.00 ;Setup Jerk
M220 S100 ;Reset Feedrate
M221 S100 ;Reset Flowrate

G28 ;Home

G92 E0 ;Reset Extruder
G1 Z2.0 F3000 ;Move Z Axis up
G1 X10.1 Y20 Z0.28 F5000.0 ;Move to start position
G1 X10.1 Y200.0 Z0.28 F1500.0 E15 ;Draw the first line
G1 X10.4 Y200.0 Z0.28 F5000.0 ;Move to side a little
G1 X10.4 Y20 Z0.28 F1500.0 E30 ;Draw the second line
G92 E0 ;Reset Extruder
G1 Z2.0 F3000 ;Move Z Axis up
G92 E0
G92 E0
G1 F2700 E-5
;LAYER_COUNT:21
;LAYER:0
M107
G0 F6000 X77.78 Y77.753 Z0.2
;TYPE:SKIRT
G1 F2700 E0
G1 F1200 X78.058 Y77.483 E0.01208
G1 X79.008 Y76.66 E0.05128
G1 X79.069 Y76.613 E0.05368
G1 X79.432 Y76.346 E0.06773
G1 X79.613 Y76.218 E0.07464
G1 X80.598 Y75.597 E0.11095
G1 X80.802 Y75.483 E0.11824
G1 X81.885 Y74.953 E0.15583
G1 X82.176 Y74.83 E0.16568
G1 X83.055 Y74.502 E0.19494
G1 X83.523 Y74.361 E0.21018
G1 X83.931 Y74.248 E0.22338
G1 X84.845 Y74.037 E0.25263
G1 X85.495 Y73.935 E0.27314
G1 X85.67 Y73.913 E0.27864
G1 X86.476 Y73.842 E0.30387
G1 X86.767 Y73.827 E0.31296
G1 X87.159 Y73.813 E0.32519
G1 X87.917 Y73.801 E0.34883
G1 X131.998 Y73.8 E1.72334
G1 X132.65 Y73.808 E1.74367
G1 X132.998 Y73.818 E1.75452
G1 X133.479 Y73.84 E1.76954
G1 X134.816 Y73.984 E1.81147
G1 X135.146 Y74.04 E1.8219
G1 X136.063 Y74.236 E1.85114
G1 X136.608 Y74.392 E1.86882
G1 X136.859 Y74.471 E1.87702
G1 X138.055 Y74.926 E1.91693
G1 X138.392 Y75.077 E1.92844
G1 X139.231 Y75.496 E1.95768
G1 X139.676 Y75.757 E1.97377
G1 X139.833 Y75.854 E1.97952
G1 X140.889 Y76.596 E2.01977
G1 X141.238 Y76.873 E2.03366
G1 X142.266 Y77.8 E2.07682
G1 X142.484 Y78.023 E2.08655
G1 X143.11 Y78.72 E2.11576
G1 X143.459 Y79.167 E2.13344
G1 X143.573 Y79.321 E2.13942
G1 X144.255 Y80.36 E2.17817
G1 X144.451 Y80.699 E2.19038
G1 X145.054 Y81.908 E2.23251
G1 X145.169 Y82.179 E2.24169
G1 X145.498 Y83.057 E2.27092
G1 X145.635 Y83.507 E2.28559
G1 X145.739 Y83.878 E2.2976
G1 X145.953 Y84.791 E2.32684
G1 X146.056 Y85.438 E2.34727
G1 X146.083 Y85.647 E2.35384
G1 X146.155 Y86.41 E2.37774
G1 X146.161 Y86.512 E2.38093
G1 X146.178 Y86.949 E2.39456
G1 X146.198 Y88.003 E2.42743
G1 X146.2 Y88.212 E2.43395
G1 X146.199 Y132.11 E3.80275
G1 X146.191 Y132.701 E3.82118
G1 X146.181 Y133.048 E3.83201
G1 X146.163 Y133.447 E3.84446
G1 X146.02 Y134.783 E3.88636
G1 X145.957 Y135.156 E3.89815
G1 X145.762 Y136.073 E3.92738
G1 X145.595 Y136.653 E3.9462
G1 X145.528 Y136.864 E3.95311
G1 X145.103 Y137.986 E3.99052
G1 X144.98 Y138.264 E4
G1 X144.565 Y139.104 E4.02921
G1 X144.329 Y139.512 E4.04391
G1 X144.097 Y139.895 E4.05787
G1 X143.578 Y140.676 E4.08711
G1 X143.148 Y141.228 E4.10893
G1 X143.015 Y141.388 E4.11542
G1 X142.246 Y142.221 E4.15077
G1 X141.977 Y142.484 E4.1625
G1 X141.049 Y143.295 E4.20093
G1 X140.981 Y143.348 E4.20361
G1 X140.57 Y143.653 E4.21957
G1 X140.389 Y143.781 E4.22649
G1 X139.4 Y144.405 E4.26295
G1 X139.194 Y144.52 E4.27031
G1 X138.115 Y145.047 E4.30775
G1 X137.824 Y145.17 E4.3176
G1 X136.945 Y145.498 E4.34685
G1 X136.477 Y145.639 E4.3621
G1 X136.069 Y145.752 E4.3753
G1 X135.155 Y145.963 E4.40455
G1 X134.505 Y146.065 E4.42506
G1 X134.33 Y146.087 E4.43056
G1 X133.524 Y146.158 E4.45579
G1 X133.233 Y146.173 E4.46488
G1 X132.841 Y146.187 E4.47711
G1 X132.083 Y146.199 E4.50075
G1 X88.002 Y146.2 E5.87525
G1 X87.35 Y146.192 E5.89558
G1 X87.002 Y146.182 E5.90644
G1 X86.521 Y146.16 E5.92145
G1 X85.184 Y146.016 E5.96338
G1 X84.854 Y145.96 E5.97382
G1 X83.937 Y145.764 E6.00306
G1 X83.392 Y145.608 E6.02074
G1 X83.141 Y145.529 E6.02894
G1 X81.943 Y145.073 E6.06891
G1 X81.604 Y144.921 E6.0805
G1 X80.765 Y144.501 E6.10975
G1 X80.312 Y144.236 E6.12612
G1 X80.157 Y144.14 E6.1318
G1 X79.111 Y143.404 E6.17168
G1 X78.762 Y143.127 E6.18558
G1 X77.752 Y142.218 E6.22795
G1 X77.533 Y141.995 E6.23769
G1 X76.905 Y141.299 E6.26692
G1 X76.507 Y140.788 E6.28712
G1 X76.392 Y140.631 E6.29319
G1 X75.738 Y139.628 E6.33052
G1 X75.543 Y139.29 E6.34269
G1 X74.939 Y138.077 E6.38494
G1 X74.824 Y137.805 E6.39415
G1 X74.363 Y136.486 E6.43772
G1 X74.26 Y136.118 E6.44963
G1 X74.046 Y135.205 E6.47887
G1 X73.942 Y134.549 E6.49959
G1 X73.915 Y134.338 E6.50622
G1 X73.843 Y133.547 E6.53098
G1 X73.837 Y133.438 E6.53439
G1 X73.822 Y133.039 E6.54684
G1 X73.802 Y131.969 E6.58021
G1 X73.8 Y131.763 E6.58663
G1 X73.801 Y87.85 E7.9559
G1 X73.809 Y87.291 E7.97333
G1 X73.819 Y86.952 E7.98391
G1 X73.837 Y86.553 E7.99636
G1 X73.973 Y85.255 E8.03706
G1 X74.033 Y84.892 E8.04853
G1 X74.226 Y83.974 E8.07778
G1 X74.405 Y83.347 E8.09811
G1 X74.477 Y83.121 E8.10551
G1 X74.902 Y82.003 E8.1428
G1 X75.023 Y81.73 E8.15211
G1 X75.671 Y80.488 E8.19579
G1 X75.903 Y80.105 E8.20976
G1 X76.422 Y79.324 E8.239
G1 X76.852 Y78.772 E8.26081
G1 X76.985 Y78.612 E8.2673
G1 X77.78 Y77.753 E8.3038
G0 F6000 X78.059 Y78.04
G1 F1200 X78.337 Y77.77 E8.31588
G1 X79.252 Y76.977 E8.35364
G1 X79.663 Y76.672 E8.3696
G1 X79.844 Y76.544 E8.37651
G1 X80.793 Y75.946 E8.41148
G1 X80.997 Y75.832 E8.41877
G1 X82.041 Y75.321 E8.45501
G1 X82.332 Y75.198 E8.46487
G1 X83.63 Y74.747 E8.50771
G1 X84.038 Y74.634 E8.52091
G1 X84.935 Y74.427 E8.54962
G1 X85.545 Y74.332 E8.56887
G1 X85.72 Y74.31 E8.57437
G1 X86.496 Y74.241 E8.59866
G1 X86.787 Y74.226 E8.60775
G1 X87.165 Y74.213 E8.61954
G1 X88.091 Y74.2 E8.64842
G1 X131.998 Y74.2 E10.0175
G1 X132.644 Y74.208 E10.03764
G1 X132.979 Y74.218 E10.04809
G1 X133.46 Y74.24 E10.06311
G1 X134.749 Y74.378 E10.10353
G1 X135.079 Y74.434 E10.11396
G1 X135.98 Y74.628 E10.1427
G1 X136.488 Y74.774 E10.15918
G1 X136.739 Y74.853 E10.16739
G1 X137.891 Y75.291 E10.20582
G1 X138.228 Y75.442 E10.21733
G1 X139.051 Y75.854 E10.24603
G1 X139.465 Y76.097 E10.261
G1 X139.622 Y76.194 E10.26676
G1 X140.641 Y76.909 E10.30557
G1 X140.99 Y77.186 E10.31946
G1 X141.98 Y78.079 E10.36104
G1 X142.198 Y78.302 E10.37076
G1 X142.812 Y78.988 E10.39947
G1 X143.138 Y79.405 E10.41597
G1 X143.252 Y79.559 E10.42195
G1 X143.909 Y80.56 E10.45928
G1 X144.105 Y80.899 E10.47149
G1 X144.686 Y82.064 E10.51208
G1 X144.801 Y82.335 E10.52126
G1 X145.25 Y83.615 E10.56356
G1 X145.354 Y83.986 E10.57558
G1 X145.563 Y84.882 E10.60426
G1 X145.66 Y85.489 E10.62343
G1 X145.687 Y85.698 E10.63
G1 X145.756 Y86.434 E10.65305
G1 X145.762 Y86.536 E10.65624
G1 X145.778 Y86.957 E10.66937
G1 X145.798 Y88.011 E10.70225
G1 X145.8 Y88.212 E10.70851
G1 X145.799 Y132.104 E12.07713
G1 X145.791 Y132.695 E12.09556
G1 X145.781 Y133.03 E12.10601
G1 X145.763 Y133.429 E12.11846
G1 X145.626 Y134.716 E12.15882
G1 X145.563 Y135.089 E12.17061
G1 X145.37 Y135.99 E12.19935
G1 X145.214 Y136.532 E12.21693
G1 X145.147 Y136.743 E12.22383
G1 X144.738 Y137.824 E12.25987
G1 X144.615 Y138.102 E12.26935
G1 X143.987 Y139.305 E12.31167
G1 X143.755 Y139.688 E12.32563
G1 X143.245 Y140.454 E12.35432
G1 X142.84 Y140.972 E12.37483
G1 X142.707 Y141.132 E12.38132
G1 X141.966 Y141.935 E12.41539
G1 X141.697 Y142.198 E12.42712
G1 X140.803 Y142.98 E12.46415
G1 X140.735 Y143.033 E12.46684
G1 X140.339 Y143.327 E12.48222
G1 X140.158 Y143.455 E12.48913
G1 X139.205 Y144.055 E12.52425
G1 X138.999 Y144.17 E12.5316
G1 X137.959 Y144.679 E12.56771
G1 X137.668 Y144.802 E12.57756
G1 X136.37 Y145.253 E12.62041
G1 X135.962 Y145.366 E12.63361
G1 X135.065 Y145.573 E12.66231
G1 X134.455 Y145.668 E12.68156
G1 X134.28 Y145.69 E12.68706
G1 X133.504 Y145.759 E12.71135
G1 X133.213 Y145.774 E12.72044
G1 X132.835 Y145.787 E12.73223
G1 X131.909 Y145.8 E12.76111
G1 X87.853 Y145.799 E14.13484
G1 X87.356 Y145.792 E14.15033
G1 X87.021 Y145.782 E14.16078
G1 X86.54 Y145.76 E14.1758
G1 X85.251 Y145.622 E14.21622
G1 X84.921 Y145.566 E14.22666
G1 X84.02 Y145.372 E14.2554
G1 X83.512 Y145.226 E14.27188
G1 X83.261 Y145.147 E14.28008
G1 X82.106 Y144.708 E14.31861
G1 X81.767 Y144.556 E14.3302
G1 X80.944 Y144.143 E14.35891
G1 X80.523 Y143.896 E14.37413
G1 X80.368 Y143.8 E14.37981
G1 X79.359 Y143.091 E14.41827
G1 X79.01 Y142.814 E14.43216
G1 X78.037 Y141.938 E14.47298
G1 X77.818 Y141.715 E14.48273
G1 X77.202 Y141.031 E14.51143
G1 X76.83 Y140.552 E14.53034
G1 X76.715 Y140.395 E14.53641
G1 X76.084 Y139.428 E14.57241
G1 X75.889 Y139.09 E14.58458
G1 X75.308 Y137.921 E14.62529
G1 X75.193 Y137.649 E14.63449
G1 X74.748 Y136.378 E14.67648
G1 X74.645 Y136.01 E14.6884
G1 X74.436 Y135.114 E14.71709
G1 X74.339 Y134.498 E14.73653
G1 X74.312 Y134.287 E14.74317
G1 X74.242 Y133.525 E14.76703
G1 X74.236 Y133.416 E14.77043
G1 X74.222 Y133.031 E14.78244
G1 X74.202 Y131.961 E14.81581
G1 X74.2 Y131.763 E14.82199
G1 X74.201 Y87.855 E16.1911
G1 X74.209 Y87.296 E16.20853
G1 X74.219 Y86.97 E16.2187
G1 X74.237 Y86.571 E16.23116
G1 X74.368 Y85.32 E16.27038
G1 X74.428 Y84.957 E16.28185
G1 X74.617 Y84.056 E16.31055
G1 X74.786 Y83.468 E16.32963
G1 X74.858 Y83.242 E16.33703
G1 X75.267 Y82.165 E16.37295
G1 X75.388 Y81.892 E16.38226
G1 X76.013 Y80.695 E16.42437
G1 X76.245 Y80.312 E16.43833
G1 X76.755 Y79.546 E16.46702
G1 X77.16 Y79.028 E16.48753
G1 X77.293 Y78.868 E16.49401
G1 X78.059 Y78.04 E16.52919
G0 F6000 X78.338 Y78.327
G1 F1200 X78.616 Y78.057 E16.54127
G1 X79.497 Y77.294 E16.57761
G1 X79.894 Y76.999 E16.59303
G1 X80.075 Y76.871 E16.59995
G1 X80.988 Y76.295 E16.63361
G1 X81.192 Y76.181 E16.64089
G1 X82.197 Y75.69 E16.67577
G1 X82.488 Y75.567 E16.68562
G1 X83.736 Y75.132 E16.72683
G1 X84.144 Y75.019 E16.74003
G1 X85.025 Y74.817 E16.76822
G1 X85.595 Y74.729 E16.7862
G1 X85.77 Y74.707 E16.7917
G1 X86.517 Y74.641 E16.81508
G1 X86.808 Y74.626 E16.82417
G1 X87.172 Y74.613 E16.83553
G1 X88.091 Y74.6 E16.86419
G1 X131.998 Y74.6 E18.23327
G1 X132.639 Y74.608 E18.25326
G1 X132.961 Y74.618 E18.2633
G1 X133.442 Y74.64 E18.27831
G1 X134.683 Y74.773 E18.31723
G1 X135.013 Y74.829 E18.32767
G1 X135.895 Y75.019 E18.3558
G1 X136.368 Y75.156 E18.37116
G1 X136.619 Y75.235 E18.37936
G1 X137.728 Y75.656 E18.41635
G1 X138.065 Y75.807 E18.42786
G1 X139.255 Y76.438 E18.46986
G1 X139.412 Y76.535 E18.47562
G1 X140.392 Y77.223 E18.51296
G1 X140.741 Y77.5 E18.52685
G1 X141.694 Y78.359 E18.56685
G1 X141.912 Y78.582 E18.57658
G1 X142.514 Y79.255 E18.60473
G1 X142.816 Y79.643 E18.62006
G1 X142.93 Y79.797 E18.62604
G1 X143.562 Y80.761 E18.66198
G1 X143.758 Y81.1 E18.67419
G1 X144.318 Y82.221 E18.71327
G1 X144.433 Y82.492 E18.72245
G1 X144.864 Y83.723 E18.76311
G1 X144.968 Y84.094 E18.77513
G1 X145.173 Y84.973 E18.80327
G1 X145.263 Y85.54 E18.82117
G1 X145.29 Y85.749 E18.82774
G1 X145.356 Y86.457 E18.84992
G1 X145.362 Y86.559 E18.8531
G1 X145.378 Y86.964 E18.86574
G1 X145.398 Y88.018 E18.89861
G1 X145.4 Y88.212 E18.90466
G1 X145.399 Y132.099 E20.27312
G1 X145.391 Y132.69 E20.29155
G1 X145.382 Y133.012 E20.30159
G1 X145.364 Y133.411 E20.31405
G1 X145.232 Y134.65 E20.3529
G1 X145.169 Y135.023 E20.36469
G1 X144.979 Y135.906 E20.39286
G1 X144.833 Y136.411 E20.40925
G1 X144.766 Y136.622 E20.41615
G1 X144.372 Y137.662 E20.45083
G1 X144.249 Y137.94 E20.46031
G1 X143.645 Y139.098 E20.50103
G1 X143.413 Y139.481 E20.515
G1 X142.912 Y140.232 E20.54315
G1 X142.533 Y140.716 E20.56231
G1 X142.4 Y140.876 E20.5688
G1 X141.687 Y141.649 E20.60159
G1 X141.418 Y141.912 E20.61332
G1 X140.557 Y142.664 E20.64897
G1 X140.489 Y142.717 E20.65166
G1 X140.108 Y143 E20.66646
G1 X139.927 Y143.128 E20.67337
G1 X139.01 Y143.706 E20.70717
G1 X138.804 Y143.821 E20.71452
G1 X137.803 Y144.31 E20.74926
G1 X137.512 Y144.433 E20.75911
G1 X136.264 Y144.868 E20.80032
G1 X135.856 Y144.981 E20.81352
G1 X134.975 Y145.183 E20.84171
G1 X134.405 Y145.271 E20.85969
G1 X134.23 Y145.293 E20.86519
G1 X133.483 Y145.359 E20.88858
G1 X133.192 Y145.374 E20.89766
G1 X132.828 Y145.387 E20.90902
G1 X131.909 Y145.4 E20.93768
G1 X87.858 Y145.399 E22.31125
G1 X87.361 Y145.392 E22.32675
G1 X87.039 Y145.382 E22.33679
G1 X86.558 Y145.36 E22.35181
G1 X85.317 Y145.227 E22.39072
G1 X84.987 Y145.171 E22.40116
G1 X84.105 Y144.981 E22.42929
G1 X83.632 Y144.844 E22.44465
G1 X83.381 Y144.765 E22.45285
G1 X82.27 Y144.343 E22.48991
G1 X81.931 Y144.191 E22.50149
G1 X81.124 Y143.786 E22.52965
G1 X80.733 Y143.556 E22.54379
G1 X80.578 Y143.46 E22.54948
G1 X79.608 Y142.777 E22.58647
G1 X79.259 Y142.5 E22.60036
G1 X78.323 Y141.658 E22.63962
G1 X78.104 Y141.435 E22.64937
G1 X77.5 Y140.763 E22.67754
G1 X77.152 Y140.315 E22.69523
G1 X77.037 Y140.158 E22.7013
G1 X76.431 Y139.228 E22.73591
G1 X76.236 Y138.89 E22.74808
G1 X75.676 Y137.765 E22.78726
G1 X75.561 Y137.493 E22.79647
G1 X75.133 Y136.27 E22.83687
G1 X75.03 Y135.902 E22.84879
G1 X74.826 Y135.023 E22.87693
G1 X74.735 Y134.448 E22.89508
G1 X74.708 Y134.237 E22.90171
G1 X74.641 Y133.503 E22.92469
G1 X74.635 Y133.394 E22.9281
G1 X74.622 Y133.024 E22.93964
G1 X74.6 Y131.763 E22.97897
G1 X74.601 Y87.861 E24.34789
G1 X74.609 Y87.302 E24.36532
G1 X74.618 Y86.988 E24.37512
G1 X74.636 Y86.589 E24.38757
G1 X74.763 Y85.386 E24.42529
G1 X74.823 Y85.023 E24.43676
G1 X75.009 Y84.139 E24.46493
G1 X75.167 Y83.59 E24.48275
G1 X75.239 Y83.364 E24.49014
G1 X75.633 Y82.327 E24.52473
G1 X75.754 Y82.054 E24.53404
G1 X76.355 Y80.902 E24.57456
G1 X76.587 Y80.519 E24.58852
G1 X77.088 Y79.768 E24.61667
G1 X77.467 Y79.284 E24.63584
G1 X77.6 Y79.124 E24.64233
G1 X78.338 Y78.327 E24.6762
G1 F2700 E19.6762
;MESH:leg_insert.stl
G0 F6000 X87.091 Y84.142
G0 X87.313 Y85.219
G0 X132.938 Y85.416
;TYPE:WALL-INNER
G1 F2700 E24.6762
G1 F1200 X133.397 Y85.535 E24.69098
G1 X133.816 Y85.764 E24.70587
G1 X134.155 Y86.08 E24.72032
G1 X134.303 Y86.284 E24.72818
G1 X134.505 Y86.713 E24.74297
G1 X134.595 Y87.179 E24.75777
G1 X134.6 Y87.315 E24.76201
G1 X134.6 Y132.688 E26.1768
G1 X134.541 Y133.171 E26.19197
G1 X134.369 Y133.607 E26.20659
G1 X134.245 Y133.803 E26.21382
G1 X134.085 Y133.996 E26.22164
G1 X133.714 Y134.305 E26.23669
G1 X133.28 Y134.508 E26.25163
G1 X132.816 Y134.596 E26.26636
G1 X132.681 Y134.6 E26.27057
G1 X87.318 Y134.6 E27.68505
G1 X87.062 Y134.584 E27.69305
G1 X86.603 Y134.465 E27.70783
G1 X86.184 Y134.236 E27.72272
G1 X85.845 Y133.92 E27.73717
G1 X85.697 Y133.716 E27.74503
G1 X85.495 Y133.287 E27.75982
G1 X85.405 Y132.82 E27.77465
G1 X85.4 Y132.684 E27.77889
G1 X85.4 Y87.312 E29.19365
G1 X85.459 Y86.829 E29.20883
G1 X85.633 Y86.389 E29.22358
G1 X85.91 Y86.009 E29.23824
G1 X86.286 Y85.695 E29.25352
G1 X86.72 Y85.492 E29.26846
G1 X87.184 Y85.404 E29.28318
G1 X87.319 Y85.4 E29.28739
G1 X132.682 Y85.4 E30.70187
G1 X132.938 Y85.416 E30.70987
G0 F6000 X132.988 Y85.019
;TYPE:WALL-OUTER
G1 F1200 X133.276 Y85.073 E30.71901
G1 X133.545 Y85.162 E30.72784
G1 X133.807 Y85.284 E30.73686
G1 X134.051 Y85.439 E30.74587
G1 X134.279 Y85.628 E30.7551
G1 X134.463 Y85.823 E30.76346
G1 X134.641 Y86.068 E30.77291
G1 X134.776 Y86.312 E30.7816
G1 X134.884 Y86.583 E30.7907
G1 X134.958 Y86.869 E30.79991
G1 X134.994 Y87.144 E30.80856
G1 X135 Y87.3 E30.81343
G1 X135 Y132.688 E32.22869
G1 X134.982 Y132.983 E32.2379
G1 X134.929 Y133.27 E32.247
G1 X134.841 Y133.54 E32.25586
G1 X134.718 Y133.803 E32.26491
G1 X134.565 Y134.045 E32.27384
G1 X134.379 Y134.269 E32.28292
G1 X134.167 Y134.471 E32.29205
G1 X133.927 Y134.645 E32.30129
G1 X133.683 Y134.779 E32.30997
G1 X133.411 Y134.887 E32.3191
G1 X133.126 Y134.96 E32.32827
G1 X132.847 Y134.995 E32.33704
G1 X132.694 Y135 E32.34181
G1 X87.308 Y135 E33.75701
G1 X87.012 Y134.981 E33.76626
G1 X86.724 Y134.927 E33.77539
G1 X86.455 Y134.838 E33.78423
G1 X86.193 Y134.716 E33.79324
G1 X85.949 Y134.561 E33.80225
G1 X85.721 Y134.372 E33.81149
G1 X85.537 Y134.177 E33.81985
G1 X85.359 Y133.932 E33.82929
