;FLAVOR:Marlin
;TIME:5860
;Filament used: 4.16975m
;Layer height: 0.2
;MINX:73.65
;MINY:73.65
;MINZ:0.2
;MAXX:146.35
;MAXY:146.35
;MAXZ:40
;Generated with Cura_SteamEngine 4.8.0
M140 S60
M105
M190 S60
M104 S200
M105
M109 S200
M82 ;absolute extrusion mode
; --- Global Settings
; layer_height = 0.2
; smooth_spiralized_contours = True
; magic_mesh_surface_mode = normal
; machine_extruder_count = 1
; --- Single Extruder Settings
; speed_z_hop = 5
; retraction_amount = 5
; retraction_hop = 0.2
; retraction_hop_enabled = False
; retraction_enable = True
; retraction_speed = 45
; retraction_retract_speed = 45
; retraction_prime_speed = 45
; speed_travel = 200.0

M201 X500.00 Y500.00 Z100.00 E5000.00 ;Setup machine max acceleration
M203 X500.00 Y500.00 Z10.00 E50.00 ;Setup machine max feedrate
M204 P500.00 R1000.00 T500.00 ;Setup Print/Retract/Travel acceleration
M205 X8.00 Y8.00 Z0.40 E5.00 ;Setup Jerk
M220 S100 ;Reset Feedrate
M221 S100 ;Reset Flowrate

G28 ;Home

G92 E0 ;Reset Extruder
G1 Z2.0 F3000 ;Move Z Axis up
G1 X10.1 Y20 Z0.28 F5000.0 ;Move to start position
G1 X10.1 Y200.0 Z0.28 F1500.0 E15 ;Draw the first line
G1 X10.4 Y200.0 Z0.28 F5000.0 ;Move to side a little
G1 X10.4 Y20 Z0.28 F1500.0 E30 ;Draw the second line
G92 E0 ;Reset Extruder
G1 Z2.0 F3000 ;Move Z Axis up
G92 E0
G92 E0
G1 F2700 E-5
;LAYER_COUNT:200
;LAYER:0
M107
G0 F6000 X77.515 Y77.424 Z0.2
;TYPE:SKIRT
G1 F2700 E0
G1 F1200 X77.675 Y77.267 E0.00746
G1 X78.681 Y76.393 E0.05178
G1 X78.78 Y76.317 E0.05593
G1 X79.547 Y75.778 E0.08711
G1 X79.982 Y75.514 E0.10403
G1 X80.353 Y75.3 E0.11828
G1 X81.184 Y74.866 E0.14946
G1 X81.764 Y74.615 E0.17048
G1 X81.849 Y74.581 E0.17353
G1 X82.984 Y74.197 E0.21338
G1 X83.275 Y74.116 E0.22342
G1 X84.189 Y73.903 E0.25464
G1 X84.664 Y73.824 E0.27065
G1 X84.964 Y73.781 E0.28073
G1 X85.947 Y73.685 E0.31358
G1 X86.118 Y73.676 E0.31928
G1 X86.529 Y73.662 E0.33296
G1 X87.42 Y73.65 E0.3626
G1 X132.644 Y73.65 E1.86675
G1 X133.311 Y73.658 E1.88894
G1 X133.691 Y73.67 E1.90158
G1 X134.086 Y73.689 E1.91474
G1 X135.354 Y73.824 E1.95715
G1 X135.662 Y73.875 E1.96753
G1 X136.58 Y74.067 E1.99873
G1 X137.218 Y74.25 E2.0208
G1 X137.318 Y74.282 E2.02429
G1 X138.476 Y74.726 E2.06554
G1 X138.843 Y74.891 E2.07893
G1 X140.05 Y75.527 E2.1243
G1 X140.239 Y75.642 E2.13166
G1 X141.019 Y76.163 E2.16286
G1 X141.537 Y76.567 E2.18471
G1 X141.729 Y76.726 E2.193
G1 X142.731 Y77.667 E2.23872
G1 X142.87 Y77.815 E2.24547
G1 X143.625 Y78.71 E2.28442
G1 X143.743 Y78.866 E2.29092
G1 X144.495 Y80 E2.33618
G1 X144.696 Y80.348 E2.34955
G1 X145.13 Y81.18 E2.38076
G1 X145.384 Y81.765 E2.40197
G1 X145.434 Y81.89 E2.40645
G1 X145.83 Y83.069 E2.44781
G1 X145.916 Y83.383 E2.45864
G1 X146.125 Y84.298 E2.48986
G1 X146.207 Y84.81 E2.5071
G1 X146.226 Y84.95 E2.5118
G1 X146.311 Y85.856 E2.54207
G1 X146.322 Y86.067 E2.5491
G1 X146.336 Y86.466 E2.56238
G1 X146.349 Y87.289 E2.58975
G1 X146.35 Y132.613 E4.09723
G1 X146.342 Y133.301 E4.12012
G1 X146.331 Y133.67 E4.1324
G1 X146.314 Y134.036 E4.14458
G1 X146.176 Y135.334 E4.188
G1 X146.128 Y135.622 E4.19771
G1 X145.935 Y136.54 E4.22891
G1 X145.783 Y137.076 E4.24744
G1 X145.683 Y137.398 E4.25865
G1 X145.192 Y138.688 E4.30456
G1 X145.162 Y138.754 E4.30697
G1 X144.535 Y139.936 E4.35148
G1 X144.378 Y140.193 E4.36149
G1 X143.625 Y141.275 E4.40534
G1 X143.415 Y141.541 E4.41661
G1 X142.485 Y142.576 E4.46289
G1 X142.325 Y142.733 E4.47035
G1 X141.319 Y143.607 E4.51467
G1 X141.22 Y143.683 E4.51882
G1 X140.453 Y144.222 E4.55
G1 X140.018 Y144.486 E4.56692
G1 X139.647 Y144.7 E4.58117
G1 X138.816 Y145.134 E4.61235
G1 X138.236 Y145.385 E4.63337
G1 X138.151 Y145.419 E4.63642
G1 X137.016 Y145.803 E4.67627
G1 X136.725 Y145.884 E4.68631
G1 X135.811 Y146.097 E4.71753
G1 X135.336 Y146.176 E4.73354
G1 X135.036 Y146.219 E4.74362
G1 X134.053 Y146.315 E4.77647
G1 X133.882 Y146.324 E4.78217
G1 X133.471 Y146.338 E4.79585
G1 X132.58 Y146.35 E4.82549
G1 X87.207 Y146.349 E6.3346
G1 X86.689 Y146.342 E6.35183
G1 X86.309 Y146.33 E6.36447
G1 X85.914 Y146.311 E6.37763
G1 X84.646 Y146.176 E6.42004
G1 X84.338 Y146.125 E6.43042
G1 X83.42 Y145.933 E6.46161
G1 X82.782 Y145.75 E6.48369
G1 X82.682 Y145.718 E6.48718
G1 X81.522 Y145.273 E6.52851
G1 X81.153 Y145.107 E6.54196
G1 X79.924 Y144.457 E6.58821
G1 X79.741 Y144.345 E6.59534
G1 X78.962 Y143.822 E6.62655
G1 X78.492 Y143.455 E6.64638
G1 X78.294 Y143.292 E6.65491
G1 X77.596 Y142.666 E6.6861
G1 X77.267 Y142.331 E6.70171
G1 X77.128 Y142.183 E6.70847
G1 X76.36 Y141.27 E6.74815
G1 X76.244 Y141.116 E6.75456
G1 X75.503 Y139.997 E6.7992
G1 X75.301 Y139.647 E6.81264
G1 X74.867 Y138.815 E6.84385
G1 X74.604 Y138.205 E6.86594
G1 X74.554 Y138.079 E6.87045
G1 X74.18 Y136.97 E6.90938
G1 X74.096 Y136.668 E6.91981
G1 X73.884 Y135.754 E6.95101
G1 X73.788 Y135.155 E6.97119
G1 X73.768 Y135.003 E6.97629
G1 X73.688 Y134.115 E7.00594
G1 X73.676 Y133.874 E7.01397
G1 X73.663 Y133.494 E7.02662
G1 X73.65 Y132.537 E7.05845
G1 X73.651 Y87.208 E8.5661
G1 X73.658 Y86.691 E8.58329
G1 X73.67 Y86.31 E8.59597
G1 X73.688 Y85.937 E8.60839
G1 X73.826 Y84.652 E8.65138
G1 X73.873 Y84.371 E8.66085
G1 X74.188 Y83.019 E8.70703
G1 X74.28 Y82.713 E8.71765
G1 X74.588 Y81.827 E8.74885
G1 X74.866 Y81.185 E8.77212
G1 X74.908 Y81.096 E8.77539
G1 X75.474 Y80.049 E8.81498
G1 X75.627 Y79.799 E8.82473
G1 X76.375 Y78.725 E8.86826
G1 X76.585 Y78.459 E8.87953
G1 X77.515 Y77.424 E8.92581
G0 F6000 X77.795 Y77.709
G1 F1200 X77.955 Y77.552 E8.93327
G1 X78.924 Y76.71 E8.97596
G1 X79.023 Y76.634 E8.98012
G1 X79.777 Y76.105 E9.01075
G1 X80.182 Y75.86 E9.02649
G1 X80.553 Y75.646 E9.04074
G1 X81.369 Y75.221 E9.07134
G1 X81.912 Y74.986 E9.09102
G1 X81.997 Y74.952 E9.09406
G1 X83.092 Y74.582 E9.13251
G1 X83.383 Y74.501 E9.14255
G1 X84.721 Y74.22 E9.18803
G1 X85.021 Y74.177 E9.19811
G1 X85.968 Y74.085 E9.22975
G1 X86.139 Y74.076 E9.23545
G1 X86.535 Y74.062 E9.24863
G1 X87.42 Y74.05 E9.27806
G1 X132.644 Y74.05 E10.78222
G1 X133.305 Y74.058 E10.80421
G1 X133.671 Y74.069 E10.81639
G1 X134.066 Y74.088 E10.82954
G1 X135.289 Y74.218 E10.87044
G1 X135.597 Y74.269 E10.88083
G1 X136.498 Y74.459 E10.91145
G1 X137.096 Y74.631 E10.93215
G1 X137.196 Y74.663 E10.93564
G1 X138.312 Y75.091 E10.9754
G1 X138.679 Y75.256 E10.98878
G1 X139.842 Y75.869 E11.03251
G1 X140.031 Y75.984 E11.03986
G1 X140.796 Y76.496 E11.07048
G1 X141.282 Y76.875 E11.09098
G1 X141.474 Y77.034 E11.09927
G1 X142.44 Y77.941 E11.14334
G1 X142.579 Y78.089 E11.1501
G1 X143.306 Y78.951 E11.1876
G1 X143.424 Y79.107 E11.19411
G1 X144.149 Y80.2 E11.23773
G1 X144.35 Y80.548 E11.2511
G1 X144.775 Y81.365 E11.28173
G1 X145.013 Y81.913 E11.3016
G1 X145.063 Y82.038 E11.30608
G1 X145.444 Y83.175 E11.34596
G1 X145.53 Y83.489 E11.35679
G1 X145.735 Y84.387 E11.38742
G1 X145.811 Y84.863 E11.40346
G1 X145.83 Y85.003 E11.40816
G1 X145.912 Y85.877 E11.43735
G1 X145.923 Y86.088 E11.44438
G1 X145.936 Y86.473 E11.45719
G1 X145.95 Y87.463 E11.49012
G1 X145.949 Y132.749 E12.99634
G1 X145.942 Y133.296 E13.01454
G1 X145.932 Y133.652 E13.02638
G1 X145.915 Y134.018 E13.03857
G1 X145.782 Y135.269 E13.08041
G1 X145.734 Y135.557 E13.09012
G1 X145.543 Y136.457 E13.12072
G1 X145.401 Y136.958 E13.13804
G1 X145.301 Y137.28 E13.14926
G1 X144.828 Y138.522 E13.19346
G1 X144.798 Y138.588 E13.19587
G1 X144.194 Y139.728 E13.23878
G1 X144.037 Y139.985 E13.2488
G1 X143.311 Y141.027 E13.29104
G1 X143.101 Y141.293 E13.30231
G1 X142.205 Y142.291 E13.34692
G1 X142.045 Y142.448 E13.35437
G1 X141.076 Y143.29 E13.39707
G1 X140.977 Y143.366 E13.40122
G1 X140.223 Y143.895 E13.43186
G1 X139.818 Y144.14 E13.4476
G1 X139.447 Y144.354 E13.46185
G1 X138.631 Y144.779 E13.49245
G1 X138.088 Y145.014 E13.51213
G1 X138.003 Y145.048 E13.51517
G1 X136.908 Y145.418 E13.55361
G1 X136.617 Y145.499 E13.56366
G1 X135.279 Y145.78 E13.60913
G1 X134.979 Y145.823 E13.61921
G1 X134.032 Y145.915 E13.65086
G1 X133.861 Y145.924 E13.65655
G1 X133.465 Y145.938 E13.66973
G1 X132.58 Y145.95 E13.69917
G1 X87.213 Y145.949 E15.20808
G1 X86.695 Y145.942 E15.22531
G1 X86.329 Y145.931 E15.23749
G1 X85.934 Y145.912 E15.25065
G1 X84.711 Y145.782 E15.29155
G1 X84.403 Y145.731 E15.30193
G1 X83.502 Y145.541 E15.33256
G1 X82.904 Y145.369 E15.35326
G1 X82.804 Y145.337 E15.35675
G1 X81.686 Y144.908 E15.39658
G1 X81.317 Y144.742 E15.41004
G1 X80.133 Y144.116 E15.45458
G1 X79.95 Y144.004 E15.46172
G1 X79.186 Y143.49 E15.49234
G1 X78.746 Y143.147 E15.5109
G1 X78.548 Y142.984 E15.51943
G1 X77.558 Y142.057 E15.56454
G1 X77.419 Y141.909 E15.57129
G1 X76.679 Y141.03 E15.60951
G1 X76.563 Y140.876 E15.61592
G1 X75.849 Y139.797 E15.65895
G1 X75.647 Y139.447 E15.67239
G1 X75.222 Y138.63 E15.70302
G1 X74.975 Y138.058 E15.72375
G1 X74.925 Y137.932 E15.72826
G1 X74.566 Y136.863 E15.76576
G1 X74.482 Y136.561 E15.77619
G1 X74.274 Y135.664 E15.80681
G1 X74.185 Y135.103 E15.82571
G1 X74.165 Y134.951 E15.83081
G1 X74.087 Y134.095 E15.85939
G1 X74.075 Y133.854 E15.86742
G1 X74.063 Y133.488 E15.8796
G1 X74.05 Y132.537 E15.91123
G1 X74.051 Y87.213 E17.41872
G1 X74.058 Y86.696 E17.43591
G1 X74.069 Y86.329 E17.44812
G1 X74.087 Y85.956 E17.46055
G1 X74.22 Y84.718 E17.50196
G1 X74.267 Y84.437 E17.51143
G1 X74.571 Y83.134 E17.55594
G1 X74.663 Y82.828 E17.56656
G1 X74.966 Y81.959 E17.59717
G1 X75.228 Y81.356 E17.61904
G1 X75.27 Y81.267 E17.62231
G1 X75.815 Y80.258 E17.66046
G1 X75.968 Y80.008 E17.6702
G1 X76.689 Y78.973 E17.71216
G1 X76.899 Y78.707 E17.72343
G1 X77.795 Y77.709 E17.76804
G0 F6000 X78.075 Y77.995
G1 F1200 X78.235 Y77.838 E17.77549
G1 X79.168 Y77.027 E17.81661
G1 X79.267 Y76.951 E17.82076
G1 X80.382 Y76.207 E17.86534
G1 X80.753 Y75.993 E17.87959
G1 X81.554 Y75.576 E17.90963
G1 X82.061 Y75.358 E17.92798
G1 X82.146 Y75.324 E17.93103
G1 X83.199 Y74.968 E17.968
G1 X83.49 Y74.887 E17.97804
G1 X84.778 Y74.616 E18.02182
G1 X85.078 Y74.573 E18.0319
G1 X85.989 Y74.484 E18.06234
G1 X86.16 Y74.475 E18.06804
G1 X86.541 Y74.462 E18.08072
G1 X87.42 Y74.45 E18.10996
G1 X132.644 Y74.45 E19.61411
G1 X133.3 Y74.458 E19.63593
G1 X133.652 Y74.469 E19.64765
G1 X134.047 Y74.488 E19.6608
G1 X135.223 Y74.613 E19.70013
G1 X135.531 Y74.664 E19.71052
G1 X136.415 Y74.851 E19.74057
G1 X136.974 Y75.012 E19.75992
G1 X137.074 Y75.044 E19.76341
G1 X138.148 Y75.456 E19.80167
G1 X138.515 Y75.621 E19.81505
G1 X139.634 Y76.21 E19.85711
G1 X139.823 Y76.325 E19.86447
G1 X140.573 Y76.828 E19.89451
G1 X141.027 Y77.183 E19.91368
G1 X141.219 Y77.342 E19.92197
G1 X142.148 Y78.215 E19.96437
G1 X142.287 Y78.363 E19.97112
G1 X142.987 Y79.193 E20.00723
G1 X143.105 Y79.349 E20.01374
G1 X143.803 Y80.4 E20.0557
G1 X144.004 Y80.748 E20.06907
G1 X144.42 Y81.55 E20.09912
G1 X144.641 Y82.062 E20.11767
G1 X144.691 Y82.187 E20.12214
G1 X145.059 Y83.281 E20.16053
G1 X145.145 Y83.595 E20.17136
G1 X145.414 Y84.917 E20.21623
G1 X145.433 Y85.057 E20.22093
G1 X145.512 Y85.898 E20.24903
G1 X145.523 Y86.109 E20.25605
G1 X145.536 Y86.479 E20.26837
G1 X145.55 Y87.463 E20.3011
G1 X145.549 Y132.744 E21.80715
G1 X145.542 Y133.291 E21.82535
G1 X145.532 Y133.633 E21.83673
G1 X145.515 Y133.999 E21.84891
G1 X145.387 Y135.203 E21.88918
G1 X145.339 Y135.491 E21.8989
G1 X145.151 Y136.374 E21.92892
G1 X145.019 Y136.839 E21.945
G1 X144.919 Y137.161 E21.95621
G1 X144.464 Y138.357 E21.99877
G1 X144.434 Y138.423 E22.00119
G1 X143.852 Y139.519 E22.04246
G1 X143.695 Y139.776 E22.05248
G1 X142.997 Y140.779 E22.09312
G1 X142.787 Y141.045 E22.10439
G1 X141.925 Y142.005 E22.1473
G1 X141.765 Y142.162 E22.15476
G1 X140.832 Y142.973 E22.19588
G1 X140.733 Y143.049 E22.20003
G1 X139.618 Y143.793 E22.24461
G1 X139.247 Y144.007 E22.25885
G1 X138.446 Y144.424 E22.28889
G1 X137.939 Y144.642 E22.30725
G1 X137.854 Y144.676 E22.31029
G1 X136.801 Y145.032 E22.34726
G1 X136.51 Y145.113 E22.35731
G1 X135.222 Y145.384 E22.40108
G1 X134.922 Y145.427 E22.41116
G1 X134.011 Y145.516 E22.44161
G1 X133.84 Y145.525 E22.4473
G1 X133.459 Y145.538 E22.45998
G1 X132.58 Y145.55 E22.48922
G1 X87.218 Y145.549 E23.99797
G1 X86.7 Y145.542 E24.0152
G1 X86.348 Y145.531 E24.02691
G1 X85.953 Y145.512 E24.04006
G1 X84.777 Y145.387 E24.0794
G1 X84.469 Y145.336 E24.08978
G1 X83.585 Y145.149 E24.11984
G1 X83.026 Y144.988 E24.13918
G1 X82.926 Y144.956 E24.14268
G1 X81.85 Y144.543 E24.18101
G1 X81.481 Y144.377 E24.19447
G1 X80.341 Y143.775 E24.23735
G1 X80.158 Y143.663 E24.24448
G1 X79.41 Y143.158 E24.2745
G1 X79 Y142.838 E24.2918
G1 X78.802 Y142.675 E24.30033
G1 X77.85 Y141.783 E24.34372
G1 X77.711 Y141.635 E24.35047
G1 X76.999 Y140.789 E24.38725
G1 X76.883 Y140.635 E24.39366
G1 X76.196 Y139.597 E24.43506
G1 X75.994 Y139.247 E24.4485
G1 X75.577 Y138.445 E24.47857
G1 X75.347 Y137.91 E24.49794
G1 X75.297 Y137.784 E24.50245
G1 X74.951 Y136.755 E24.53855
G1 X74.867 Y136.453 E24.54898
G1 X74.664 Y135.573 E24.57902
G1 X74.581 Y135.051 E24.5966
G1 X74.561 Y134.899 E24.6017
G1 X74.487 Y134.075 E24.62921
G1 X74.475 Y133.834 E24.63724
G1 X74.463 Y133.482 E24.64895
G1 X74.45 Y132.537 E24.68039
G1 X74.451 Y87.219 E26.18767
G1 X74.458 Y86.702 E26.20487
G1 X74.469 Y86.348 E26.21665
G1 X74.487 Y85.975 E26.22907
G1 X74.615 Y84.784 E26.26891
G1 X74.662 Y84.503 E26.27838
G1 X74.954 Y83.249 E26.32121
G1 X75.046 Y82.943 E26.33183
G1 X75.344 Y82.091 E26.36186
G1 X75.59 Y81.527 E26.38232
G1 X75.632 Y81.438 E26.38559
G1 X76.156 Y80.467 E26.42229
G1 X76.309 Y80.217 E26.43204
G1 X77.003 Y79.221 E26.47242
G1 X77.213 Y78.955 E26.48369
G1 X78.075 Y77.995 E26.5266
G1 F2700 E21.5266
;MESH:leg_insert_v5_screwsupport.stl
G0 F6000 X91.165 Y126.036
G0 X89.73 Y126.036
G0 X89.9 Y130.1
;TYPE:WALL-INNER
G1 F2700 E26.5266
G1 F1200 X130.1 Y130.1 E27.86366
G1 X130.1 Y89.9 E29.20072
G1 X89.9 Y89.9 E30.53777
G1 X89.9 Y130.1 E31.87483
G0 F6000 X90.3 Y129.7
;TYPE:WALL-OUTER
G1 F1200 X129.7 Y129.7 E33.18528
G1 X129.7 Y90.3 E34.49573
G1 X90.3 Y90.3 E35.80618
G1 X90.3 Y129.7 E37.11663
G1 F2700 E32.11663
G0 F6000 X90 Y129.7
G0 X91.844 Y130.27
G0 X91.844 Y128.835
G0 X89.704 Y136.015
G0 X89.704 Y134.54
G0 X86.297 Y134.702
;TYPE:WALL-INNER
G1 F2700 E37.11663
G1 F1200 X85.977 Y134.574 E37.12809
G1 X85.695 Y134.37 E37.13967
G1 X85.468 Y134.094 E37.15155
G1 X85.324 Y133.787 E37.16283
G1 X85.253 Y133.421 E37.17523
G1 X85.25 Y133.35 E37.1776
G1 X85.25 Y86.688 E38.72958
G1 X85.298 Y86.301 E38.74255
G1 X85.426 Y85.976 E38.75417
G1 X85.632 Y85.694 E38.76578
G1 X85.906 Y85.466 E38.77764
G1 X86.214 Y85.322 E38.78895
G1 X86.576 Y85.253 E38.8012
G1 X86.669 Y85.25 E38.8043
G1 X133.313 Y85.25 E40.35569
G1 X133.703 Y85.298 E40.36875
G1 X134.023 Y85.426 E40.38022
G1 X134.305 Y85.63 E40.39179
G1 X134.532 Y85.906 E40.40368
G1 X134.676 Y86.213 E40.41496
G1 X134.747 Y86.577 E40.42729
G1 X134.75 Y86.65 E40.42972
G1 X134.75 Y133.312 E41.98171
G1 X134.702 Y133.699 E41.99468
G1 X134.574 Y134.024 E42.0063
G1 X134.368 Y134.306 E42.01791
G1 X134.094 Y134.534 E42.02977
G1 X133.786 Y134.678 E42.04107
G1 X133.424 Y134.747 E42.05333
G1 X133.331 Y134.75 E42.05643
G1 X86.687 Y134.75 E43.60781
G1 X86.297 Y134.702 E43.62088
G0 F6000 X86.197 Y135.093
;TYPE:WALL-OUTER
G1 F1200 X85.783 Y134.927 E43.63572
G1 X85.418 Y134.663 E43.6507
G1 X85.127 Y134.309 E43.66594
G1 X84.94 Y133.91 E43.6806
G1 X84.854 Y133.466 E43.69564
G1 X84.85 Y133.35 E43.6995
G1 X84.85 Y86.663 E45.25232
G1 X84.907 Y86.202 E45.26777
G1 X85.072 Y85.784 E45.28271
G1 X85.339 Y85.417 E45.29781
G1 X85.69 Y85.126 E45.31297
G1 X86.09 Y84.938 E45.32767
G1 X86.533 Y84.854 E45.34267
G1 X86.656 Y84.85 E45.34676
G1 X133.338 Y84.85 E46.89941
G1 X133.803 Y84.907 E46.91499
G1 X134.217 Y85.073 E46.92983
G1 X134.582 Y85.337 E46.94481
G1 X134.873 Y85.691 E46.96005
G1 X135.06 Y86.09 E46.97471
G1 X135.146 Y86.53 E46.98962
G1 X135.15 Y86.65 E46.99361
G1 X135.15 Y133.337 E48.54643
G1 X135.093 Y133.798 E48.56188
G1 X134.928 Y134.216 E48.57683
G1 X134.661 Y134.583 E48.59192
G1 X134.31 Y134.874 E48.60709
G1 X133.91 Y135.062 E48.62179
G1 X133.467 Y135.146 E48.63678
G1 X133.344 Y135.15 E48.64088
G1 X86.662 Y135.15 E50.19353
G1 X86.197 Y135.093 E50.20911
G0 F6000 X86.306 Y134.667
G0 X86.39 Y134.32
;TYPE:SKIN
G1 F1200 X86.167 Y134.23 E50.21711
G1 X85.965 Y134.085 E50.22538
G1 X85.801 Y133.885 E50.23398
G1 X85.696 Y133.661 E50.24221
G1 X85.642 Y133.383 E50.25163
G1 X85.64 Y133.35 E50.25272
