;FLAVOR:Marlin
;TIME:2471
;Filament used: 1.86006m
;Layer height: 0.2
;MINX:73.8
;MINY:73.8
;MINZ:0.2
;MAXX:146.2
;MAXY:146.2
;MAXZ:10
;Generated with Cura_SteamEngine 4.8.0
M140 S60
M105
M190 S60
M104 S200
M105
M109 S200
M82 ;absolute extrusion mode
; --- Global Settings
; layer_height = 0.2
; smooth_spiralized_contours = True
; magic_mesh_surface_mode = normal
; machine_extruder_count = 1
; --- Single Extruder Settings
; speed_z_hop = 5
; retraction_amount = 5
; retraction_hop = 0.2
; retraction_hop_enabled = False
; retraction_enable = True
; retraction_speed = 45
; retraction_retract_speed = 45
; retraction_prime_speed = 45
; speed_travel = 200.0

M201 X500.00 Y500.00 Z100.00 E5000.00 ;Setup machine max acceleration
M203 X500.00 Y500.00 Z10.00 E50.00 ;Setup machine max feedrate
M204 P500.00 R1000.00 T500.00 ;Setup Print/Retract/Travel acceleration
M205 X8.00 Y8.00 Z0.40 E5.00 ;Setup Jerk
M220 S100 ;Reset Feedrate
M221 S100 ;Reset Flowrate

G28 ;Home

G92 E0 ;Reset Extruder
G1 Z2.0 F3000 ;Move Z Axis up
G1 X10.1 Y20 Z0.28 F5000.0 ;Move to start position
G1 X10.1 Y200.0 Z0.28 F1500.0 E15 ;Draw the first line
G1 X10.4 Y200.0 Z0.28 F5000.0 ;Move to side a little
G1 X10.4 Y20 Z0.28 F1500.0 E30 ;Draw the second line
G92 E0 ;Reset Extruder
G1 Z2.0 F3000 ;Move Z Axis up
G92 E0
G92 E0
G1 F2700 E-5
;LAYER_COUNT:50
;LAYER:0
M107
G0 F6000 X77.777 Y77.755 Z0.2
;TYPE:SKIRT
G1 F2700 E0
G1 F1200 X77.991 Y77.547 E0.00993
G1 X78.967 Y76.704 E0.05282
G1 X79.211 Y76.517 E0.06304
G1 X80.379 Y75.735 E0.1098
G1 X80.689 Y75.555 E0.12172
G1 X81.946 Y74.929 E0.16842
G1 X82.274 Y74.791 E0.18026
G1 X83.153 Y74.464 E0.21145
G1 X83.713 Y74.3 E0.23086
G1 X83.901 Y74.25 E0.23733
G1 X85.135 Y73.996 E0.27923
G1 X85.538 Y73.937 E0.29278
G1 X86.925 Y73.823 E0.33907
G1 X88.046 Y73.802 E0.37636
G1 X88.252 Y73.8 E0.38321
G1 X131.997 Y73.8 E1.83818
G1 X132.65 Y73.808 E1.8599
G1 X133.004 Y73.819 E1.87168
G1 X133.479 Y73.841 E1.88749
G1 X134.799 Y73.982 E1.93165
G1 X135.143 Y74.04 E1.94325
G1 X136.06 Y74.235 E1.97443
G1 X136.637 Y74.401 E1.9944
G1 X136.88 Y74.478 E2.00288
G1 X138.057 Y74.927 E2.04478
G1 X138.396 Y75.079 E2.05713
G1 X139.235 Y75.499 E2.08834
G1 X139.726 Y75.788 E2.10729
G1 X139.91 Y75.903 E2.11451
G1 X140.917 Y76.614 E2.15551
G1 X141.193 Y76.833 E2.16722
G1 X142.218 Y77.757 E2.21312
G1 X142.446 Y77.99 E2.22397
G1 X143.315 Y78.992 E2.26808
G1 X143.538 Y79.283 E2.28027
G1 X144.076 Y80.051 E2.31146
G1 X144.405 Y80.601 E2.33278
G1 X144.508 Y80.785 E2.33979
G1 X145.047 Y81.887 E2.38059
G1 X145.205 Y82.262 E2.39413
G1 X145.532 Y83.141 E2.42532
G1 X145.686 Y83.659 E2.4433
G1 X145.735 Y83.84 E2.44953
G1 X145.996 Y85.089 E2.49197
G1 X146.058 Y85.504 E2.50593
G1 X146.157 Y86.436 E2.5371
G1 X146.177 Y86.923 E2.55331
G1 X146.198 Y88.046 E2.59067
G1 X146.2 Y88.252 E2.59752
G1 X146.199 Y132.155 E4.05774
G1 X146.192 Y132.641 E4.07391
G1 X146.182 Y132.984 E4.08532
G1 X146.161 Y133.445 E4.10067
G1 X146.021 Y134.758 E4.14459
G1 X145.969 Y135.069 E4.15507
G1 X145.775 Y135.987 E4.18628
G1 X145.643 Y136.459 E4.20258
G1 X145.541 Y136.794 E4.21423
G1 X145.065 Y138.069 E4.2595
G1 X144.958 Y138.309 E4.26824
G1 X144.339 Y139.497 E4.31279
G1 X144.119 Y139.863 E4.32699
G1 X143.602 Y140.646 E4.3582
G1 X143.12 Y141.264 E4.38427
G1 X142.985 Y141.425 E4.39126
G1 X142.223 Y142.245 E4.42849
G1 X142.009 Y142.453 E4.43841
G1 X141.03 Y143.298 E4.48143
G1 X140.714 Y143.54 E4.49466
G1 X139.946 Y144.078 E4.52585
G1 X139.364 Y144.425 E4.54839
G1 X139.164 Y144.536 E4.556
G1 X138.087 Y145.059 E4.59582
G1 X137.73 Y145.209 E4.6087
G1 X136.851 Y145.535 E4.63988
G1 X136.242 Y145.713 E4.66098
G1 X136.027 Y145.769 E4.66837
G1 X134.856 Y146.007 E4.70812
G1 X134.496 Y146.06 E4.72022
G1 X133.115 Y146.175 E4.76631
G1 X131.969 Y146.198 E4.80443
G1 X131.748 Y146.2 E4.81178
G1 X87.848 Y146.199 E6.2719
G1 X87.35 Y146.192 E6.28847
G1 X86.996 Y146.181 E6.30025
G1 X86.521 Y146.159 E6.31606
G1 X85.201 Y146.018 E6.36022
G1 X84.857 Y145.96 E6.37182
G1 X83.94 Y145.765 E6.403
G1 X83.363 Y145.599 E6.42297
G1 X83.12 Y145.522 E6.43145
G1 X81.943 Y145.073 E6.47335
G1 X81.604 Y144.921 E6.48571
G1 X80.765 Y144.501 E6.51691
G1 X80.312 Y144.236 E6.53437
G1 X80.157 Y144.14 E6.54043
G1 X79.108 Y143.402 E6.58309
G1 X78.768 Y143.132 E6.59753
G1 X77.748 Y142.212 E6.64322
G1 X77.564 Y142.024 E6.65197
G1 X76.667 Y140.985 E6.69762
G1 X76.436 Y140.681 E6.71032
G1 X75.901 Y139.911 E6.74151
G1 X75.615 Y139.434 E6.76
G1 X75.51 Y139.248 E6.76711
G1 X74.952 Y138.111 E6.80923
G1 X74.794 Y137.736 E6.82277
G1 X74.467 Y136.857 E6.85396
G1 X74.306 Y136.314 E6.8728
G1 X74.258 Y136.135 E6.87896
G1 X73.999 Y134.878 E6.92165
G1 X73.937 Y134.454 E6.9359
G1 X73.823 Y133.069 E6.98212
G1 X73.802 Y131.955 E7.01918
G1 X73.8 Y131.748 E7.02607
G1 X73.801 Y87.811 E8.48742
G1 X73.808 Y87.338 E8.50315
G1 X73.819 Y86.982 E8.515
G1 X73.84 Y86.537 E8.52981
G1 X73.979 Y85.242 E8.57313
G1 X74.031 Y84.931 E8.58362
G1 X74.225 Y84.013 E8.61483
G1 X74.357 Y83.541 E8.63113
G1 X74.459 Y83.206 E8.64278
G1 X74.935 Y81.931 E8.68804
G1 X75.042 Y81.691 E8.69678
G1 X75.661 Y80.503 E8.74134
G1 X75.881 Y80.137 E8.75554
G1 X76.398 Y79.354 E8.78675
G1 X76.88 Y78.736 E8.81281
G1 X77.015 Y78.575 E8.8198
G1 X77.777 Y77.755 E8.85703
G0 F6000 X78.056 Y78.042
G1 F1200 X78.27 Y77.834 E8.86696
G1 X79.21 Y77.022 E8.90827
G1 X79.454 Y76.835 E8.9185
G1 X80.579 Y76.081 E8.96354
G1 X80.889 Y75.901 E8.97546
G1 X82.101 Y75.298 E9.02049
G1 X82.429 Y75.16 E9.03233
G1 X83.293 Y74.84 E9.06297
G1 X83.816 Y74.686 E9.0811
G1 X84.004 Y74.636 E9.08757
G1 X85.193 Y74.392 E9.12794
G1 X85.596 Y74.333 E9.14149
G1 X86.932 Y74.223 E9.18608
G1 X88.053 Y74.202 E9.22337
G1 X88.252 Y74.2 E9.22999
G1 X131.997 Y74.2 E10.68495
G1 X132.644 Y74.208 E10.70647
G1 X132.985 Y74.218 E10.71782
G1 X133.46 Y74.24 E10.73363
G1 X134.732 Y74.377 E10.77619
G1 X135.076 Y74.435 E10.78779
G1 X135.977 Y74.627 E10.81843
G1 X136.516 Y74.782 E10.83708
G1 X136.759 Y74.859 E10.84556
G1 X137.894 Y75.292 E10.88597
G1 X138.233 Y75.444 E10.89832
G1 X139.056 Y75.857 E10.92895
G1 X139.514 Y76.127 E10.94663
G1 X139.698 Y76.242 E10.95385
G1 X140.669 Y76.927 E10.99337
G1 X140.945 Y77.146 E11.00509
G1 X141.932 Y78.036 E11.04929
G1 X142.16 Y78.269 E11.06014
G1 X142.998 Y79.235 E11.10267
G1 X143.221 Y79.526 E11.11486
G1 X143.748 Y80.281 E11.14549
G1 X144.056 Y80.796 E11.16545
G1 X144.159 Y80.98 E11.17246
G1 X144.678 Y82.042 E11.21177
G1 X144.836 Y82.417 E11.22531
G1 X145.157 Y83.28 E11.25593
G1 X145.3 Y83.763 E11.27269
G1 X145.349 Y83.944 E11.27892
G1 X145.601 Y85.148 E11.31984
G1 X145.663 Y85.563 E11.33379
G1 X145.777 Y86.931 E11.37945
G1 X145.798 Y88.054 E11.41681
G1 X145.8 Y88.252 E11.42339
G1 X145.799 Y132.15 E12.88345
G1 X145.792 Y132.636 E12.89961
G1 X145.782 Y132.965 E12.91056
G1 X145.761 Y133.426 E12.92591
G1 X145.627 Y134.692 E12.96825
G1 X145.575 Y135.003 E12.97874
G1 X145.26 Y136.343 E13.02452
G1 X145.158 Y136.678 E13.03617
G1 X144.699 Y137.906 E13.07977
G1 X144.592 Y138.146 E13.08851
G1 X143.996 Y139.291 E13.13145
G1 X143.776 Y139.657 E13.14565
G1 X143.268 Y140.425 E13.17628
G1 X142.813 Y141.007 E13.20085
G1 X142.678 Y141.168 E13.20784
G1 X141.944 Y141.958 E13.2437
G1 X141.73 Y142.166 E13.25363
G1 X140.787 Y142.981 E13.29508
G1 X140.471 Y143.223 E13.30832
G1 X139.716 Y143.75 E13.33894
G1 X139.17 Y144.075 E13.36008
G1 X138.97 Y144.186 E13.36769
G1 X137.932 Y144.69 E13.40606
G1 X137.575 Y144.84 E13.41894
G1 X136.712 Y145.16 E13.44956
G1 X136.141 Y145.326 E13.46934
G1 X135.926 Y145.382 E13.47672
G1 X134.798 Y145.611 E13.51501
G1 X134.438 Y145.664 E13.52711
G1 X133.107 Y145.775 E13.57153
G1 X131.961 Y145.798 E13.60966
G1 X131.748 Y145.8 E13.61674
G1 X87.854 Y145.799 E15.07666
G1 X87.356 Y145.792 E15.09323
G1 X87.015 Y145.782 E15.10457
G1 X86.54 Y145.76 E15.12039
G1 X85.268 Y145.623 E15.16294
G1 X84.924 Y145.565 E15.17454
G1 X84.023 Y145.373 E15.20518
G1 X83.484 Y145.218 E15.22384
G1 X83.241 Y145.141 E15.23232
G1 X82.106 Y144.708 E15.27272
G1 X81.767 Y144.556 E15.28508
G1 X80.944 Y144.143 E15.3157
G1 X80.523 Y143.896 E15.33194
G1 X80.368 Y143.8 E15.338
G1 X79.357 Y143.089 E15.37911
G1 X79.017 Y142.819 E15.39355
G1 X78.034 Y141.932 E15.43759
G1 X77.85 Y141.744 E15.44634
G1 X76.985 Y140.743 E15.49034
G1 X76.754 Y140.439 E15.50304
G1 X76.229 Y139.683 E15.53365
G1 X75.963 Y139.237 E15.55092
G1 X75.858 Y139.051 E15.55803
G1 X75.321 Y137.956 E15.59859
G1 X75.163 Y137.581 E15.61213
G1 X74.842 Y136.718 E15.64275
G1 X74.693 Y136.21 E15.66036
G1 X74.645 Y136.031 E15.66652
G1 X74.395 Y134.82 E15.70765
G1 X74.333 Y134.396 E15.7219
G1 X74.223 Y133.062 E15.76642
G1 X74.202 Y131.948 E15.80348
G1 X74.2 Y131.748 E15.81013
G1 X74.201 Y87.817 E17.27128
G1 X74.208 Y87.344 E17.28702
G1 X74.219 Y87.001 E17.29843
G1 X74.24 Y86.556 E17.31325
G1 X74.373 Y85.308 E17.35499
G1 X74.425 Y84.997 E17.36548
G1 X74.74 Y83.657 E17.41126
G1 X74.842 Y83.322 E17.42291
G1 X75.301 Y82.094 E17.46651
G1 X75.408 Y81.854 E17.47525
G1 X76.004 Y80.709 E17.51819
G1 X76.224 Y80.343 E17.53239
G1 X76.732 Y79.575 E17.56302
G1 X77.187 Y78.993 E17.58759
G1 X77.322 Y78.832 E17.59458
G1 X78.056 Y78.042 E17.63044
G0 F6000 X78.335 Y78.329
G1 F1200 X78.549 Y78.121 E17.64037
G1 X79.453 Y77.339 E17.68012
G1 X79.697 Y77.152 E17.69035
G1 X80.78 Y76.427 E17.73369
G1 X81.09 Y76.247 E17.74562
G1 X82.256 Y75.666 E17.78895
G1 X82.584 Y75.528 E17.80078
G1 X83.431 Y75.215 E17.83082
G1 X83.918 Y75.073 E17.84769
G1 X84.106 Y75.023 E17.85416
G1 X85.25 Y74.788 E17.893
G1 X85.653 Y74.729 E17.90655
G1 X86.94 Y74.623 E17.9495
G1 X88.252 Y74.6 E17.99314
G1 X131.997 Y74.6 E19.44811
G1 X132.638 Y74.608 E19.46943
G1 X132.967 Y74.618 E19.48038
G1 X133.442 Y74.64 E19.49619
G1 X134.666 Y74.771 E19.53714
G1 X135.01 Y74.829 E19.54874
G1 X135.893 Y75.018 E19.57877
G1 X136.395 Y75.163 E19.59615
G1 X136.638 Y75.24 E19.60463
G1 X137.73 Y75.657 E19.64351
G1 X138.069 Y75.809 E19.65586
G1 X138.876 Y76.214 E19.6859
G1 X139.302 Y76.466 E19.70236
G1 X139.486 Y76.581 E19.70958
G1 X140.42 Y77.241 E19.74761
G1 X140.696 Y77.46 E19.75933
G1 X141.646 Y78.316 E19.80186
G1 X141.874 Y78.549 E19.81271
G1 X142.68 Y79.479 E19.85364
G1 X142.903 Y79.77 E19.86583
G1 X143.42 Y80.51 E19.89586
G1 X143.707 Y80.992 E19.91451
G1 X143.81 Y81.176 E19.92153
G1 X144.31 Y82.198 E19.95937
G1 X144.468 Y82.573 E19.9729
G1 X144.781 Y83.42 E20.00294
G1 X144.914 Y83.868 E20.01848
G1 X144.963 Y84.049 E20.02472
G1 X145.205 Y85.207 E20.06407
G1 X145.267 Y85.622 E20.07802
G1 X145.377 Y86.938 E20.12194
G1 X145.4 Y88.252 E20.16565
G1 X145.399 Y132.144 E21.62551
G1 X145.392 Y132.63 E21.64167
G1 X145.382 Y132.947 E21.65222
G1 X145.361 Y133.408 E21.66757
G1 X145.232 Y134.626 E21.70831
G1 X145.18 Y134.937 E21.7188
G1 X144.878 Y136.226 E21.76283
G1 X144.776 Y136.561 E21.77448
G1 X144.334 Y137.743 E21.81645
G1 X144.227 Y137.983 E21.82519
G1 X143.653 Y139.085 E21.86652
G1 X143.433 Y139.451 E21.88072
G1 X142.934 Y140.204 E21.91076
G1 X142.507 Y140.75 E21.93382
G1 X142.372 Y140.911 E21.94081
G1 X141.665 Y141.671 E21.97533
G1 X141.451 Y141.879 E21.98526
G1 X140.544 Y142.663 E22.02513
G1 X140.228 Y142.905 E22.03837
G1 X139.487 Y143.422 E22.06842
G1 X138.976 Y143.726 E22.0882
G1 X138.776 Y143.837 E22.09581
G1 X137.777 Y144.322 E22.13274
G1 X137.42 Y144.472 E22.14562
G1 X136.573 Y144.784 E22.17564
G1 X136.04 Y144.939 E22.1941
G1 X135.825 Y144.995 E22.20149
G1 X134.74 Y145.215 E22.23832
G1 X134.38 Y145.268 E22.25042
G1 X133.099 Y145.375 E22.29317
G1 X131.953 Y145.398 E22.3313
G1 X131.748 Y145.4 E22.33812
G1 X87.86 Y145.399 E23.79784
G1 X87.362 Y145.392 E23.8144
G1 X87.033 Y145.382 E23.82535
G1 X86.558 Y145.36 E23.84116
G1 X85.334 Y145.229 E23.88211
G1 X84.99 Y145.171 E23.89371
G1 X84.107 Y144.982 E23.92374
G1 X83.605 Y144.837 E23.94112
G1 X83.362 Y144.76 E23.9496
G1 X82.27 Y144.343 E23.98848
G1 X81.931 Y144.191 E24.00084
G1 X81.124 Y143.786 E24.03087
G1 X80.733 Y143.556 E24.04596
G1 X80.578 Y143.46 E24.05202
G1 X79.606 Y142.776 E24.09155
G1 X79.266 Y142.506 E24.10599
G1 X78.319 Y141.653 E24.14838
G1 X78.135 Y141.465 E24.15713
G1 X77.304 Y140.501 E24.19946
G1 X77.073 Y140.197 E24.21216
G1 X76.559 Y139.455 E24.24218
G1 X76.312 Y139.04 E24.25825
G1 X76.207 Y138.854 E24.26535
G1 X75.689 Y137.8 E24.30441
G1 X75.531 Y137.425 E24.31795
G1 X75.218 Y136.578 E24.34798
G1 X75.079 Y136.107 E24.36431
G1 X75.031 Y135.928 E24.37048
G1 X74.79 Y134.762 E24.41008
G1 X74.728 Y134.338 E24.42433
G1 X74.623 Y133.054 E24.46718
G1 X74.6 Y131.748 E24.51062
G1 X74.601 Y87.823 E25.97157
G1 X74.608 Y87.35 E25.98731
G1 X74.618 Y87.02 E25.99829
G1 X74.639 Y86.575 E26.01311
G1 X74.768 Y85.374 E26.05328
G1 X74.82 Y85.063 E26.06377
G1 X75.122 Y83.774 E26.1078
G1 X75.224 Y83.439 E26.11945
G1 X75.666 Y82.257 E26.16142
G1 X75.773 Y82.017 E26.17016
G1 X76.347 Y80.915 E26.21149
G1 X76.567 Y80.549 E26.22569
G1 X77.066 Y79.796 E26.25574
G1 X77.493 Y79.25 E26.27879
G1 X77.628 Y79.089 E26.28578
G1 X78.335 Y78.329 E26.3203
G1 F2700 E21.3203
;MESH:leg_insert_v2.stl
G0 F6000 X90.665 Y126.536
G0 X89.23 Y126.536
G0 X89.4 Y130.6
;TYPE:WALL-INNER
G1 F2700 E26.3203
G1 F1200 X130.6 Y130.6 E27.69062
G1 X130.6 Y89.4 E29.06094
G1 X89.4 Y89.4 E30.43126
G1 X89.4 Y130.6 E31.80157
G0 F6000 X89.8 Y130.2
;TYPE:WALL-OUTER
G1 F1200 X130.2 Y130.2 E33.14528
G1 X130.2 Y89.8 E34.48899
G1 X89.8 Y89.8 E35.8327
G1 X89.8 Y130.2 E37.17641
G1 F2700 E32.17641
G0 F6000 X89.5 Y130.2
G0 X89.23 Y128.673
G0 X90.665 Y128.673
G0 X89.204 Y135.865
G0 X89.204 Y134.39
G0 X87.062 Y134.584
;TYPE:WALL-INNER
G1 F2700 E37.17641
G1 F1200 X86.603 Y134.465 E37.19218
G1 X86.184 Y134.236 E37.20806
G1 X85.837 Y133.909 E37.22392
G1 X85.585 Y133.513 E37.23953
G1 X85.498 Y133.296 E37.24731
G1 X85.436 Y133.053 E37.25565
G1 X85.4 Y132.684 E37.26798
G1 X85.4 Y87.315 E38.77696
G1 X85.417 Y87.057 E38.78556
G1 X85.533 Y86.607 E38.80102
G1 X85.763 Y86.184 E38.81703
G1 X86.091 Y85.837 E38.83291
G1 X86.489 Y85.582 E38.84863
G1 X86.7 Y85.499 E38.85618
G1 X86.947 Y85.436 E38.86465
G1 X87.322 Y85.4 E38.87718
G1 X132.681 Y85.4 E40.38583
G1 X132.938 Y85.416 E40.39439
G1 X133.4 Y85.536 E40.41027
G1 X133.82 Y85.768 E40.42623
G1 X134.16 Y86.087 E40.44174
G1 X134.415 Y86.487 E40.45751
G1 X134.564 Y86.946 E40.47356
G1 X134.6 Y87.315 E40.4859
G1 X134.6 Y132.68 E41.99474
G1 X134.583 Y132.943 E42.00351
G1 X134.467 Y133.393 E42.01896
G1 X134.237 Y133.816 E42.03498
G1 X133.909 Y134.163 E42.05086
G1 X133.515 Y134.414 E42.0664
G1 X133.056 Y134.564 E42.08246
G1 X132.678 Y134.6 E42.09509
G1 X87.319 Y134.6 E43.60373
G1 X87.062 Y134.584 E43.6123
G0 F6000 X87.012 Y134.981
;TYPE:WALL-OUTER
G1 F1200 X86.724 Y134.927 E43.62204
G1 X86.455 Y134.838 E43.63147
G1 X86.193 Y134.716 E43.64108
G1 X85.949 Y134.561 E43.65069
G1 X85.726 Y134.376 E43.66033
G1 X85.53 Y134.167 E43.66986
G1 X85.362 Y133.937 E43.67933
G1 X85.224 Y133.688 E43.6888
G1 X85.115 Y133.416 E43.69855
G1 X85.042 Y133.13 E43.70837
G1 X85.006 Y132.852 E43.71769
G1 X85 Y132.7 E43.72275
G1 X85 Y87.309 E45.23246
G1 X85.02 Y87.006 E45.24256
G1 X85.072 Y86.729 E45.25193
G1 X85.162 Y86.454 E45.26156
G1 X85.285 Y86.193 E45.27115
G1 X85.438 Y85.949 E45.28073
G1 X85.625 Y85.725 E45.29044
G1 X85.833 Y85.53 E45.29992
G1 X86.06 Y85.364 E45.30928
G1 X86.315 Y85.222 E45.31898
G1 X86.583 Y85.115 E45.32858
G1 X86.87 Y85.042 E45.33843
G1 X87.148 Y85.006 E45.34775
G1 X87.307 Y85 E45.35305
G1 X132.691 Y85 E46.86252
G1 X132.988 Y85.019 E46.87242
G1 X133.276 Y85.073 E46.88217
G1 X133.545 Y85.162 E46.89159
G1 X133.803 Y85.283 E46.90107
G1 X134.057 Y85.445 E46.91109
G1 X134.271 Y85.622 E46.92033
G1 X134.47 Y85.833 E46.92997
G1 X134.638 Y86.063 E46.93945
G1 X134.776 Y86.312 E46.94892
G1 X134.885 Y86.584 E46.95866
G1 X134.958 Y86.87 E46.96848
G1 X134.994 Y87.145 E46.9777
G1 X135 Y87.3 E46.98286
G1 X135 Y132.691 E48.49257
G1 X134.98 Y132.994 E48.50267
G1 X134.928 Y133.271 E48.51205
G1 X134.838 Y133.546 E48.52167
G1 X134.715 Y133.807 E48.53127
G1 X134.562 Y134.051 E48.54085
G1 X134.375 Y134.275 E48.55055
G1 X134.167 Y134.47 E48.56004
G1 X133.937 Y134.638 E48.56951
G1 X133.69 Y134.775 E48.5789
G1 X133.414 Y134.886 E48.5888
G1 X133.13 Y134.958 E48.59854
G1 X132.85 Y134.994 E48.60793
G1 X132.693 Y135 E48.61316
G1 X87.309 Y135 E50.12263
