;FLAVOR:Marlin
;TIME:2410
;Filament used: 1.85895m
;Layer height: 0.2
;MINX:73.65
;MINY:73.65
;MINZ:0.2
;MAXX:146.35
;MAXY:146.35
;MAXZ:10
;Generated with Cura_SteamEngine 4.8.0
M140 S60
M105
M190 S60
M104 S200
M105
M109 S200
M82 ;absolute extrusion mode
; --- Global Settings
; layer_height = 0.2
; smooth_spiralized_contours = True
; magic_mesh_surface_mode = normal
; machine_extruder_count = 1
; --- Single Extruder Settings
; speed_z_hop = 5
; retraction_amount = 5
; retraction_hop = 0.2
; retraction_hop_enabled = False
; retraction_enable = True
; retraction_speed = 45
; retraction_retract_speed = 45
; retraction_prime_speed = 45
; speed_travel = 200.0

M201 X500.00 Y500.00 Z100.00 E5000.00 ;Setup machine max acceleration
M203 X500.00 Y500.00 Z10.00 E50.00 ;Setup machine max feedrate
M204 P500.00 R1000.00 T500.00 ;Setup Print/Retract/Travel acceleration
M205 X8.00 Y8.00 Z0.40 E5.00 ;Setup Jerk
M220 S100 ;Reset Feedrate
M221 S100 ;Reset Flowrate

G28 ;Home

G92 E0 ;Reset Extruder
G1 Z2.0 F3000 ;Move Z Axis up
G1 X10.1 Y20 Z0.28 F5000.0 ;Move to start position
G1 X10.1 Y200.0 Z0.28 F1500.0 E15 ;Draw the first line
G1 X10.4 Y200.0 Z0.28 F5000.0 ;Move to side a little
G1 X10.4 Y20 Z0.28 F1500.0 E30 ;Draw the second line
G92 E0 ;Reset Extruder
G1 Z2.0 F3000 ;Move Z Axis up
G92 E0
G92 E0
G1 F2700 E-5
;LAYER_COUNT:50
;LAYER:0
M107
G0 F6000 X77.583 Y77.653 Z0.2
;TYPE:SKIRT
G1 F2700 E0
G1 F1200 X77.851 Y77.389 E0.01251
G1 X78.546 Y76.759 E0.04371
G1 X79.051 Y76.365 E0.06502
G1 X79.191 Y76.262 E0.0708
G1 X80.207 Y75.597 E0.11118
G1 X80.567 Y75.389 E0.12501
G1 X81.796 Y74.778 E0.17066
G1 X82.109 Y74.646 E0.18196
G1 X82.987 Y74.319 E0.21312
G1 X83.562 Y74.15 E0.23306
G1 X83.758 Y74.098 E0.2398
G1 X84.967 Y73.849 E0.28086
G1 X85.372 Y73.789 E0.29447
G1 X86.305 Y73.691 E0.32568
G1 X86.784 Y73.672 E0.34162
G1 X88.085 Y73.65 E0.3849
G1 X132.146 Y73.65 E1.85037
G1 X132.815 Y73.658 E1.87262
G1 X133.198 Y73.67 E1.88537
G1 X133.613 Y73.69 E1.89919
G1 X134.897 Y73.828 E1.94214
G1 X135.226 Y73.883 E1.95323
G1 X136.143 Y74.076 E1.9844
G1 X136.631 Y74.214 E2.00127
G1 X136.961 Y74.315 E2.01275
G1 X138.198 Y74.776 E2.05666
G1 X138.514 Y74.916 E2.06815
G1 X139.354 Y75.332 E2.09933
G1 X139.976 Y75.701 E2.12338
G1 X140.164 Y75.821 E2.1308
G1 X141.066 Y76.463 E2.16762
G1 X141.333 Y76.674 E2.17894
G1 X142.35 Y77.585 E2.22435
G1 X142.612 Y77.851 E2.23677
G1 X143.241 Y78.547 E2.26797
G1 X143.621 Y79.032 E2.28847
G1 X143.723 Y79.17 E2.29417
G1 X144.402 Y80.205 E2.33535
G1 X144.61 Y80.565 E2.34917
G1 X145.219 Y81.789 E2.39465
G1 X145.352 Y82.104 E2.40602
G1 X145.679 Y82.983 E2.43721
G1 X145.836 Y83.509 E2.45547
G1 X145.885 Y83.69 E2.46171
G1 X146.145 Y84.927 E2.50375
G1 X146.207 Y85.339 E2.5176
G1 X146.306 Y86.272 E2.54881
G1 X146.327 Y86.766 E2.56526
G1 X146.348 Y87.865 E2.60182
G1 X146.35 Y88.075 E2.6088
G1 X146.349 Y132.266 E4.0786
G1 X146.341 Y132.83 E4.09736
G1 X146.331 Y133.168 E4.10861
G1 X146.313 Y133.568 E4.12192
G1 X146.173 Y134.888 E4.16607
G1 X146.116 Y135.229 E4.17757
G1 X145.923 Y136.146 E4.20874
G1 X145.79 Y136.62 E4.22511
G1 X145.691 Y136.945 E4.23641
G1 X145.224 Y138.199 E4.28092
G1 X145.083 Y138.517 E4.29249
G1 X144.666 Y139.357 E4.32368
G1 X144.348 Y139.899 E4.34458
G1 X144.254 Y140.049 E4.35047
G1 X143.563 Y141.028 E4.39033
G1 X143.303 Y141.357 E4.40427
G1 X142.369 Y142.397 E4.45077
G1 X142.129 Y142.632 E4.46194
G1 X141.176 Y143.463 E4.50399
G1 X140.732 Y143.794 E4.52241
G1 X140.547 Y143.925 E4.52995
G1 X139.521 Y144.57 E4.57026
G1 X139.29 Y144.698 E4.57904
G1 X138.232 Y145.212 E4.61817
G1 X137.907 Y145.349 E4.6299
G1 X137.028 Y145.676 E4.66109
G1 X136.457 Y145.845 E4.6809
G1 X136.231 Y145.905 E4.68867
G1 X135.004 Y146.157 E4.73033
G1 X134.622 Y146.213 E4.74318
G1 X133.234 Y146.327 E4.7895
G1 X132.123 Y146.348 E4.82646
G1 X131.915 Y146.35 E4.83337
G1 X87.707 Y146.349 E6.30374
G1 X87.185 Y146.342 E6.3211
G1 X86.802 Y146.33 E6.33385
G1 X86.387 Y146.31 E6.34766
G1 X85.103 Y146.172 E6.39062
G1 X84.774 Y146.117 E6.40171
G1 X83.857 Y145.924 E6.43288
G1 X83.369 Y145.786 E6.44975
G1 X83.039 Y145.685 E6.46122
G1 X81.799 Y145.223 E6.50524
G1 X81.481 Y145.082 E6.51681
G1 X80.641 Y144.665 E6.548
G1 X80.087 Y144.34 E6.56936
G1 X79.939 Y144.247 E6.57517
G1 X78.965 Y143.558 E6.61486
G1 X78.634 Y143.296 E6.6289
G1 X77.924 Y142.683 E6.6601
G1 X77.587 Y142.353 E6.67578
G1 X77.347 Y142.107 E6.68721
G1 X76.463 Y141.081 E6.73226
G1 X76.206 Y140.732 E6.74667
G1 X76.075 Y140.547 E6.75421
G1 X75.44 Y139.539 E6.79384
G1 X75.317 Y139.318 E6.80225
G1 X74.794 Y138.245 E6.84195
G1 X74.648 Y137.899 E6.85444
G1 X74.321 Y137.021 E6.8856
G1 X74.156 Y136.464 E6.90493
G1 X74.106 Y136.277 E6.91136
G1 X73.853 Y135.056 E6.95284
G1 X73.79 Y134.633 E6.96706
G1 X73.692 Y133.701 E6.99823
G1 X73.672 Y133.213 E7.01447
G1 X73.65 Y131.915 E7.05765
G1 X73.651 Y87.649 E8.52995
G1 X73.659 Y87.147 E8.54664
G1 X73.669 Y86.823 E8.55743
G1 X73.687 Y86.427 E8.57061
G1 X73.826 Y85.118 E8.61439
G1 X73.883 Y84.776 E8.62592
G1 X74.076 Y83.858 E8.65713
G1 X74.213 Y83.37 E8.67398
G1 X74.312 Y83.046 E8.68525
G1 X74.783 Y81.787 E8.72996
G1 X74.925 Y81.468 E8.74157
G1 X75.342 Y80.628 E8.77277
G1 X75.671 Y80.071 E8.79428
G1 X75.789 Y79.884 E8.80164
G1 X76.471 Y78.922 E8.84086
G1 X76.681 Y78.657 E8.8521
G1 X77.583 Y77.653 E8.89699
G0 F6000 X77.863 Y77.938
G1 F1200 X78.131 Y77.674 E8.90951
G1 X78.815 Y77.057 E8.94014
G1 X79.288 Y76.687 E8.96012
G1 X79.428 Y76.584 E8.9659
G1 X80.407 Y75.944 E9.0048
G1 X80.767 Y75.736 E9.01863
G1 X81.951 Y75.147 E9.06261
G1 X82.264 Y75.015 E9.07391
G1 X83.127 Y74.694 E9.10454
G1 X83.665 Y74.536 E9.12319
G1 X83.861 Y74.484 E9.12993
G1 X85.026 Y74.244 E9.16949
G1 X85.431 Y74.184 E9.18311
G1 X86.791 Y74.072 E9.2285
G1 X88.085 Y74.05 E9.27154
G1 X132.146 Y74.05 E10.73702
G1 X132.81 Y74.058 E10.7591
G1 X133.178 Y74.069 E10.77135
G1 X133.593 Y74.089 E10.78517
G1 X134.831 Y74.222 E10.82658
G1 X135.16 Y74.277 E10.83767
G1 X136.06 Y74.468 E10.86827
G1 X136.514 Y74.596 E10.88396
G1 X136.844 Y74.697 E10.89544
G1 X138.036 Y75.142 E10.93776
G1 X138.352 Y75.282 E10.94926
G1 X139.176 Y75.691 E10.97985
G1 X139.761 Y76.038 E11.00248
G1 X139.949 Y76.158 E11.00989
G1 X140.818 Y76.776 E11.04536
G1 X141.085 Y76.987 E11.05668
G1 X142.065 Y77.866 E11.10046
G1 X142.327 Y78.132 E11.11288
G1 X142.944 Y78.815 E11.1435
G1 X143.299 Y79.269 E11.16266
G1 X143.401 Y79.407 E11.16837
G1 X144.055 Y80.405 E11.20806
G1 X144.263 Y80.765 E11.22189
G1 X144.85 Y81.945 E11.26572
G1 X144.983 Y82.26 E11.27709
G1 X145.304 Y83.123 E11.30772
G1 X145.45 Y83.613 E11.32472
G1 X145.499 Y83.794 E11.33096
G1 X145.749 Y84.987 E11.3715
G1 X145.811 Y85.399 E11.38536
G1 X145.927 Y86.773 E11.43122
G1 X145.948 Y87.872 E11.46778
G1 X145.95 Y88.075 E11.47453
G1 X145.949 Y132.26 E12.94413
G1 X145.941 Y132.824 E12.96289
G1 X145.931 Y133.151 E12.97377
G1 X145.913 Y133.551 E12.98709
G1 X145.779 Y134.822 E13.0296
G1 X145.722 Y135.163 E13.0411
G1 X145.407 Y136.504 E13.08691
G1 X145.308 Y136.829 E13.09821
G1 X144.858 Y138.037 E13.14109
G1 X144.717 Y138.355 E13.15266
G1 X144.308 Y139.179 E13.18326
G1 X144.009 Y139.687 E13.20286
G1 X143.915 Y139.837 E13.20875
G1 X143.25 Y140.78 E13.24713
G1 X142.99 Y141.109 E13.26108
G1 X142.089 Y142.111 E13.30589
G1 X141.849 Y142.346 E13.31707
G1 X140.931 Y143.147 E13.35759
G1 X140.501 Y143.468 E13.37543
G1 X140.316 Y143.599 E13.38297
G1 X139.328 Y144.22 E13.42179
G1 X139.097 Y144.348 E13.43057
G1 X138.076 Y144.844 E13.46833
G1 X137.751 Y144.981 E13.48006
G1 X136.888 Y145.301 E13.51067
G1 X136.354 Y145.458 E13.52918
G1 X136.128 Y145.518 E13.53696
G1 X134.945 Y145.761 E13.57713
G1 X134.563 Y145.817 E13.58997
G1 X133.226 Y145.927 E13.63459
G1 X132.115 Y145.948 E13.67155
G1 X131.915 Y145.95 E13.6782
G1 X87.712 Y145.949 E15.1484
G1 X87.19 Y145.942 E15.16576
G1 X86.822 Y145.931 E15.178
G1 X86.407 Y145.911 E15.19182
G1 X85.169 Y145.778 E15.23324
G1 X84.84 Y145.723 E15.24433
G1 X83.94 Y145.532 E15.27493
G1 X83.486 Y145.404 E15.29062
G1 X83.156 Y145.303 E15.3021
G1 X81.961 Y144.857 E15.34452
G1 X81.643 Y144.716 E15.35609
G1 X80.819 Y144.307 E15.38669
G1 X80.3 Y144.001 E15.40673
G1 X80.152 Y143.908 E15.41254
G1 X79.213 Y143.244 E15.45079
G1 X78.882 Y142.982 E15.46483
G1 X77.874 Y142.073 E15.50998
G1 X77.634 Y141.827 E15.52141
G1 X76.782 Y140.839 E15.5648
G1 X76.532 Y140.501 E15.57878
G1 X76.401 Y140.316 E15.58632
G1 X75.79 Y139.345 E15.62448
G1 X75.667 Y139.124 E15.63289
G1 X75.163 Y138.09 E15.67115
G1 X75.017 Y137.744 E15.68364
G1 X74.696 Y136.881 E15.71427
G1 X74.543 Y136.361 E15.7323
G1 X74.493 Y136.174 E15.73873
G1 X74.249 Y134.997 E15.77871
G1 X74.186 Y134.574 E15.79294
G1 X74.072 Y133.206 E15.8386
G1 X74.05 Y131.915 E15.88154
G1 X74.051 Y87.655 E17.35363
G1 X74.059 Y87.153 E17.37033
G1 X74.069 Y86.841 E17.38072
G1 X74.087 Y86.445 E17.3939
G1 X74.22 Y85.183 E17.43611
G1 X74.277 Y84.841 E17.44764
G1 X74.468 Y83.941 E17.47824
G1 X74.596 Y83.486 E17.49396
G1 X74.695 Y83.162 E17.50523
G1 X75.148 Y81.949 E17.54829
G1 X75.29 Y81.63 E17.55991
G1 X75.701 Y80.806 E17.59053
G1 X76.01 Y80.284 E17.61071
G1 X76.128 Y80.097 E17.61806
G1 X76.784 Y79.171 E17.65581
G1 X76.994 Y78.906 E17.66705
G1 X77.863 Y77.938 E17.71032
G0 F6000 X78.144 Y78.222
G1 F1200 X78.412 Y77.958 E17.72283
G1 X79.083 Y77.354 E17.75286
G1 X79.525 Y77.009 E17.77151
G1 X79.665 Y76.906 E17.77729
G1 X80.607 Y76.29 E17.81473
G1 X80.967 Y76.082 E17.82855
G1 X82.106 Y75.516 E17.87086
G1 X82.419 Y75.384 E17.88216
G1 X83.266 Y75.07 E17.9122
G1 X83.767 Y74.923 E17.92957
G1 X83.963 Y74.871 E17.93631
G1 X85.084 Y74.64 E17.97438
G1 X85.489 Y74.58 E17.988
G1 X86.799 Y74.472 E18.03171
G1 X88.085 Y74.45 E18.07449
G1 X132.146 Y74.45 E19.53997
G1 X132.805 Y74.458 E19.56189
G1 X133.159 Y74.469 E19.57367
G1 X133.574 Y74.489 E19.58749
G1 X134.765 Y74.617 E19.62733
G1 X135.094 Y74.672 E19.63842
G1 X136.397 Y74.979 E19.68295
G1 X136.727 Y75.08 E19.69443
G1 X137.874 Y75.507 E19.73513
G1 X138.19 Y75.647 E19.74663
G1 X138.998 Y76.049 E19.77664
G1 X139.546 Y76.375 E19.79785
G1 X139.734 Y76.495 E19.80527
G1 X140.57 Y77.09 E19.8394
G1 X140.837 Y77.301 E19.85072
G1 X141.78 Y78.146 E19.89283
G1 X142.042 Y78.412 E19.90525
G1 X142.647 Y79.083 E19.9353
G1 X142.978 Y79.507 E19.95319
G1 X143.08 Y79.645 E19.9589
G1 X143.709 Y80.605 E19.99707
G1 X143.917 Y80.965 E20.0109
G1 X144.482 Y82.1 E20.05307
G1 X144.615 Y82.415 E20.06444
G1 X144.929 Y83.262 E20.09449
G1 X145.064 Y83.718 E20.1103
G1 X145.113 Y83.899 E20.11654
G1 X145.353 Y85.046 E20.15552
G1 X145.415 Y85.458 E20.16937
G1 X145.527 Y86.781 E20.21353
G1 X145.548 Y87.88 E20.25009
G1 X145.55 Y88.075 E20.25658
G1 X145.549 Y132.255 E21.72601
G1 X145.541 Y132.819 E21.74477
G1 X145.532 Y133.133 E21.75522
G1 X145.514 Y133.533 E21.76854
G1 X145.384 Y134.756 E21.80944
G1 X145.327 Y135.097 E21.82094
G1 X145.024 Y136.387 E21.86502
G1 X144.925 Y136.712 E21.87632
G1 X144.493 Y137.874 E21.91755
G1 X144.352 Y138.192 E21.92912
G1 X143.949 Y139.001 E21.95918
G1 X143.67 Y139.474 E21.97745
G1 X143.576 Y139.624 E21.98333
G1 X142.936 Y140.532 E22.02028
G1 X142.676 Y140.861 E22.03423
G1 X141.809 Y141.825 E22.07735
G1 X141.569 Y142.06 E22.08852
G1 X140.686 Y142.831 E22.12751
G1 X140.628 Y142.876 E22.12995
G1 X140.27 Y143.141 E22.14477
G1 X140.085 Y143.272 E22.15231
G1 X139.134 Y143.87 E22.18967
G1 X138.903 Y143.998 E22.19845
G1 X137.921 Y144.475 E22.23477
G1 X137.596 Y144.612 E22.2465
G1 X136.749 Y144.926 E22.27654
G1 X136.251 Y145.071 E22.29379
G1 X136.025 Y145.131 E22.30157
G1 X134.887 Y145.365 E22.34021
G1 X134.505 Y145.421 E22.35305
G1 X133.219 Y145.527 E22.39597
G1 X131.915 Y145.55 E22.43935
G1 X87.717 Y145.549 E23.90938
G1 X87.195 Y145.542 E23.92674
G1 X86.841 Y145.531 E23.93852
G1 X86.426 Y145.511 E23.95234
G1 X85.235 Y145.383 E23.99218
G1 X84.906 Y145.328 E24.00328
G1 X83.603 Y145.021 E24.0478
G1 X83.273 Y144.92 E24.05928
G1 X82.124 Y144.492 E24.10006
G1 X81.806 Y144.351 E24.11163
G1 X80.997 Y143.948 E24.14169
G1 X80.513 Y143.662 E24.16039
G1 X80.365 Y143.569 E24.1662
G1 X79.461 Y142.931 E24.20301
G1 X79.13 Y142.669 E24.21705
G1 X78.16 Y141.794 E24.2605
G1 X77.92 Y141.548 E24.27193
G1 X77.1 Y140.597 E24.31369
G1 X76.859 Y140.27 E24.3272
G1 X76.728 Y140.085 E24.33474
G1 X76.139 Y139.15 E24.3715
G1 X76.016 Y138.929 E24.37991
G1 X75.531 Y137.934 E24.41672
G1 X75.385 Y137.588 E24.42921
G1 X75.071 Y136.742 E24.45923
G1 X74.929 Y136.258 E24.476
G1 X74.879 Y136.071 E24.48244
G1 X74.644 Y134.939 E24.5209
G1 X74.581 Y134.516 E24.53512
G1 X74.472 Y133.199 E24.57907
G1 X74.45 Y131.915 E24.62179
G1 X74.451 Y87.661 E26.09368
G1 X74.459 Y87.159 E26.11038
G1 X74.469 Y86.859 E26.12036
G1 X74.487 Y86.463 E26.13355
G1 X74.615 Y85.249 E26.17415
G1 X74.672 Y84.907 E26.18568
G1 X74.978 Y83.603 E26.23023
G1 X75.077 Y83.279 E26.2415
G1 X75.514 Y82.112 E26.28294
G1 X75.656 Y81.793 E26.29456
G1 X76.059 Y80.985 E26.32459
G1 X76.348 Y80.498 E26.34342
G1 X76.466 Y80.311 E26.35078
G1 X77.098 Y79.419 E26.38714
G1 X77.308 Y79.154 E26.39838
G1 X78.144 Y78.222 E26.44003
G1 F2700 E21.44003
;MESH:leg_insert_v3.stl
G0 F6000 X90.665 Y126.536
G0 X89.23 Y126.536
G0 X89.4 Y130.6
;TYPE:WALL-INNER
G1 F2700 E26.44003
G1 F1200 X130.6 Y130.6 E27.81034
G1 X130.6 Y89.4 E29.18066
G1 X89.4 Y89.4 E30.55098
G1 X89.4 Y130.6 E31.9213
G0 F6000 X89.8 Y130.2
;TYPE:WALL-OUTER
G1 F1200 X130.2 Y130.2 E33.26501
G1 X130.2 Y89.8 E34.60872
G1 X89.8 Y89.8 E35.95243
G1 X89.8 Y130.2 E37.29613
G1 F2700 E32.29613
G0 F6000 X89.5 Y130.2
G0 X89.23 Y128.673
G0 X90.665 Y128.673
G0 X89.204 Y136.015
G0 X89.204 Y134.54
G0 X86.907 Y134.733
;TYPE:WALL-INNER
G1 F2700 E37.29613
G1 F1200 X86.45 Y134.615 E37.31183
G1 X86.033 Y134.386 E37.32766
G1 X85.693 Y134.067 E37.34316
G1 X85.544 Y133.863 E37.35157
G1 X85.348 Y133.446 E37.36689
G1 X85.286 Y133.203 E37.37523
G1 X85.25 Y132.834 E37.38756
G1 X85.25 Y87.166 E38.90649
G1 X85.267 Y86.907 E38.91512
G1 X85.384 Y86.453 E38.93071
G1 X85.619 Y86.029 E38.94684
G1 X85.927 Y85.697 E38.9619
G1 X86.134 Y85.547 E38.9704
G1 X86.554 Y85.348 E38.98586
G1 X86.798 Y85.286 E38.99423
G1 X87.172 Y85.25 E39.00673
G1 X132.829 Y85.25 E40.52529
G1 X133.093 Y85.267 E40.53409
G1 X133.547 Y85.384 E40.54968
G1 X133.971 Y85.619 E40.5658
G1 X134.303 Y85.927 E40.58087
G1 X134.453 Y86.134 E40.58937
G1 X134.652 Y86.554 E40.60483
G1 X134.745 Y87.031 E40.62099
G1 X134.75 Y87.166 E40.62548
G1 X134.75 Y132.826 E42.14414
G1 X134.733 Y133.093 E42.15304
G1 X134.615 Y133.55 E42.16874
G1 X134.386 Y133.967 E42.18456
G1 X134.067 Y134.307 E42.20007
G1 X133.669 Y134.562 E42.21579
G1 X133.205 Y134.714 E42.23203
G1 X132.828 Y134.75 E42.24462
G1 X87.171 Y134.75 E43.76318
G1 X86.907 Y134.733 E43.77198
G0 F6000 X86.856 Y135.13
;TYPE:WALL-OUTER
G1 F1200 X86.579 Y135.078 E43.78136
G1 X86.304 Y134.988 E43.79098
G1 X86.043 Y134.866 E43.80056
G1 X85.799 Y134.711 E43.81018
G1 X85.572 Y134.522 E43.82
G1 X85.386 Y134.325 E43.82901
G1 X85.208 Y134.081 E43.83906
G1 X85.074 Y133.838 E43.84829
G1 X84.965 Y133.566 E43.85803
G1 X84.892 Y133.28 E43.86785
G1 X84.856 Y133.001 E43.87721
G1 X84.85 Y132.85 E43.88223
G1 X84.85 Y87.163 E45.40179
G1 X84.87 Y86.856 E45.41202
G1 X84.922 Y86.579 E45.4214
G1 X85.012 Y86.304 E45.43102
G1 X85.133 Y86.047 E45.44047
G1 X85.296 Y85.792 E45.45053
G1 X85.474 Y85.576 E45.45984
G1 X85.674 Y85.386 E45.46902
G1 X85.918 Y85.209 E45.47904
G1 X86.162 Y85.074 E45.48832
G1 X86.434 Y84.965 E45.49806
G1 X86.721 Y84.892 E45.50791
G1 X86.999 Y84.856 E45.51724
G1 X87.157 Y84.85 E45.5225
G1 X132.84 Y84.85 E47.04192
G1 X133.144 Y84.87 E47.05205
G1 X133.421 Y84.922 E47.06143
G1 X133.696 Y85.012 E47.07105
G1 X133.953 Y85.133 E47.0805
G1 X134.208 Y85.296 E47.09056
G1 X134.424 Y85.474 E47.09987
G1 X134.614 Y85.674 E47.10905
G1 X134.791 Y85.918 E47.11907
G1 X134.926 Y86.162 E47.12835
G1 X135.035 Y86.434 E47.1381
G1 X135.108 Y86.72 E47.14791
G1 X135.144 Y86.996 E47.15717
G1 X135.15 Y87.15 E47.1623
G1 X135.15 Y132.837 E48.68185
G1 X135.13 Y133.144 E48.69208
G1 X135.078 Y133.421 E48.70146
G1 X134.988 Y133.696 E48.71108
G1 X134.866 Y133.957 E48.72066
G1 X134.711 Y134.201 E48.73028
G1 X134.522 Y134.428 E48.7401
G1 X134.325 Y134.614 E48.74912
G1 X134.081 Y134.792 E48.75916
G1 X133.84 Y134.924 E48.7683
