;FLAVOR:Marlin
;TIME:5039
;Filament used: 6.4862m
;Layer height: 0.28
;MINX:14.162
;MINY:14.16
;MINZ:0.28
;MAXX:205.84
;MAXY:205.84
;MAXZ:9.8
;Generated with Cura_SteamEngine 4.8.0
M140 S75
M105
M190 S75
M104 S235
M105
M109 S235
M82 ;absolute extrusion mode
; --- Global Settings
; layer_height = 0.28
; smooth_spiralized_contours = True
; magic_mesh_surface_mode = normal
; machine_extruder_count = 1
; --- Single Extruder Settings
; speed_z_hop = 5
; retraction_amount = 6.0
; retraction_hop = 0.2
; retraction_hop_enabled = False
; retraction_enable = True
; retraction_speed = 45
; retraction_retract_speed = 45
; retraction_prime_speed = 45
; speed_travel = 200.0

M201 X500.00 Y500.00 Z100.00 E5000.00 ;Setup machine max acceleration
M203 X500.00 Y500.00 Z10.00 E50.00 ;Setup machine max feedrate
M204 P500.00 R1000.00 T500.00 ;Setup Print/Retract/Travel acceleration
M205 X8.00 Y8.00 Z0.40 E5.00 ;Setup Jerk
M220 S100 ;Reset Feedrate
M221 S100 ;Reset Flowrate

G28 ;Home

G92 E0 ;Reset Extruder
G1 Z2.0 F3000 ;Move Z Axis up
G1 X10.1 Y20 Z0.28 F5000.0 ;Move to start position
G1 X10.1 Y200.0 Z0.28 F1500.0 E15 ;Draw the first line
G1 X10.4 Y200.0 Z0.28 F5000.0 ;Move to side a little
G1 X10.4 Y20 Z0.28 F1500.0 E30 ;Draw the second line
G92 E0 ;Reset Extruder
G1 Z2.0 F3000 ;Move Z Axis up
G92 E0
G92 E0
G1 F2700 E-6
;LAYER_COUNT:35
;LAYER:0
M107
G0 F6000 X45.279 Y17.744 Z0.28
;TYPE:SKIRT
G1 F2700 E0
G1 F900 X45.76 Y17.276 E0.03125
G1 X46.46 Y16.651 E0.07495
G1 X47.21 Y16.088 E0.11861
G1 X48.005 Y15.591 E0.16227
G1 X48.84 Y15.164 E0.20594
G1 X49.708 Y14.809 E0.24961
G1 X50.603 Y14.53 E0.29326
G1 X51.519 Y14.327 E0.33695
G1 X52.449 Y14.204 E0.38063
G1 X53.386 Y14.16 E0.42431
G1 X54.323 Y14.196 E0.46797
G1 X55.254 Y14.312 E0.51166
G1 X56.171 Y14.507 E0.55531
G1 X57.069 Y14.779 E0.599
G1 X57.94 Y15.126 E0.64266
G1 X58.778 Y15.547 E0.68633
G1 X59.577 Y16.037 E0.72997
G1 X60.332 Y16.594 E0.77366
G1 X60.997 Y17.175 E0.81478
G1 X61.226 Y17.392 E0.82947
G1 X61.438 Y17.599 E0.84327
G1 X202.248 Y158.41 E10.11588
G1 X202.716 Y158.89 E10.1471
G1 X203.342 Y159.589 E10.19079
G1 X203.905 Y160.338 E10.23442
G1 X204.403 Y161.133 E10.2781
G1 X204.831 Y161.967 E10.32175
G1 X205.187 Y162.835 E10.36544
G1 X205.467 Y163.73 E10.4091
G1 X205.671 Y164.646 E10.4528
G1 X205.795 Y165.575 E10.49644
G1 X205.84 Y166.512 E10.54012
G1 X205.805 Y167.449 E10.58378
G1 X205.69 Y168.38 E10.62746
G1 X205.496 Y169.298 E10.67115
G1 X205.225 Y170.196 E10.71483
G1 X204.878 Y171.067 E10.75849
G1 X204.459 Y171.906 E10.80216
G1 X203.969 Y172.706 E10.84584
G1 X203.413 Y173.461 E10.8895
G1 X202.848 Y174.11 E10.92957
G1 X202.638 Y174.333 E10.94383
G1 X202.408 Y174.57 E10.95921
G1 X174.731 Y202.246 E12.78176
G1 X174.242 Y202.722 E12.81353
G1 X173.542 Y203.347 E12.85723
G1 X172.792 Y203.91 E12.9009
G1 X171.997 Y204.407 E12.94455
G1 X171.162 Y204.835 E12.98824
G1 X170.294 Y205.19 E13.03191
G1 X169.399 Y205.47 E13.07558
G1 X168.483 Y205.672 E13.11926
G1 X167.554 Y205.796 E13.1629
G1 X166.617 Y205.84 E13.20658
G1 X165.68 Y205.804 E13.25024
G1 X164.749 Y205.688 E13.29393
G1 X163.831 Y205.494 E13.33762
G1 X162.934 Y205.222 E13.38126
G1 X162.063 Y204.875 E13.42492
G1 X161.224 Y204.454 E13.46863
G1 X160.425 Y203.964 E13.51227
G1 X159.67 Y203.407 E13.55596
G1 X158.978 Y202.801 E13.59879
G1 X158.72 Y202.555 E13.61539
G1 X158.533 Y202.373 E13.62754
G1 X152.09 Y195.929 E14.05186
G1 X151.616 Y195.441 E14.08354
G1 X150.992 Y194.741 E14.1272
G1 X150.43 Y193.991 E14.17084
G1 X149.934 Y193.195 E14.21451
G1 X149.507 Y192.36 E14.25818
G1 X149.153 Y191.491 E14.30188
G1 X148.874 Y190.596 E14.34553
G1 X148.673 Y189.68 E14.3892
G1 X148.55 Y188.75 E14.43288
G1 X148.507 Y187.859 E14.47442
G1 X148.499 Y186.638 E14.53127
G1 X148.502 Y186.056 E14.55837
G1 X148.447 Y183.565 E14.67439
G1 X148.319 Y181.034 E14.7924
G1 X148.122 Y178.539 E14.90894
G1 X147.852 Y176.028 E15.02653
G1 X147.511 Y173.526 E15.14411
G1 X147.1 Y171.035 E15.26167
G1 X146.626 Y168.592 E15.37755
G1 X146.077 Y166.141 E15.49451
G1 X145.448 Y163.663 E15.61355
G1 X144.766 Y161.259 E15.72991
G1 X144.018 Y158.886 E15.84577
G1 X143.178 Y156.458 E15.9654
G1 X142.304 Y154.147 E16.08045
G1 X141.33 Y151.776 E16.1998
G1 X140.322 Y149.509 E16.31533
G1 X139.235 Y147.239 E16.43252
G1 X138.072 Y144.976 E16.551
G1 X136.865 Y142.781 E16.66764
G1 X135.59 Y140.612 E16.7848
G1 X134.254 Y138.48 E16.90195
G1 X132.847 Y136.368 E17.02012
G1 X131.402 Y134.329 E17.13649
G1 X129.909 Y132.341 E17.25226
G1 X128.312 Y130.336 E17.37162
G1 X126.693 Y128.419 E17.48845
G1 X125.057 Y126.587 E17.60282
G1 X122.347 Y123.761 E17.78514
G1 X96.219 Y97.633 E19.50571
G1 X94.315 Y95.783 E19.62933
G1 X92.505 Y94.121 E19.74375
G1 X90.559 Y92.434 E19.86368
G1 X88.641 Y90.86 E19.97921
G1 X86.623 Y89.3 E20.09798
G1 X84.606 Y87.831 E20.21417
G1 X82.552 Y86.422 E20.33015
G1 X80.398 Y85.03 E20.44957
G1 X78.29 Y83.752 E20.56436
G1 X76.068 Y82.489 E20.68337
G1 X73.846 Y81.309 E20.80052
G1 X71.594 Y80.192 E20.91758
G1 X69.301 Y79.137 E21.03511
G1 X67.021 Y78.163 E21.15055
G1 X64.605 Y77.21 E21.27149
G1 X62.31 Y76.381 E21.38511
G1 X59.891 Y75.584 E21.50371
G1 X57.496 Y74.867 E21.62012
G1 X55.039 Y74.208 E21.73857
G1 X52.603 Y73.628 E21.85517
G1 X50.125 Y73.111 E21.97304
G1 X47.65 Y72.669 E22.09011
G1 X45.188 Y72.299 E22.20604
G1 X42.66 Y71.992 E22.32462
G1 X40.156 Y71.76 E22.44172
G1 X37.674 Y71.601 E22.55752
G1 X35.152 Y71.511 E22.67503
G1 X32.339 Y71.491 E22.80602
G1 X31.886 Y71.478 E22.82713
G1 X31.679 Y71.468 E22.83678
G1 X30.745 Y71.383 E22.88045
G1 X29.822 Y71.219 E22.9241
G1 X28.916 Y70.976 E22.96778
G1 X28.034 Y70.657 E23.01145
G1 X27.182 Y70.265 E23.05512
G1 X26.367 Y69.801 E23.09879
G1 X25.594 Y69.269 E23.14248
G1 X24.674 Y68.494 E23.1985
G1 X24.439 Y68.273 E23.21352
G1 X24.196 Y68.038 E23.22926
G1 X17.733 Y61.572 E23.65496
G1 X17.269 Y61.094 E23.68598
G1 X16.645 Y60.394 E23.72964
G1 X16.083 Y59.643 E23.77332
G1 X15.587 Y58.847 E23.81699
G1 X15.161 Y58.011 E23.86068
G1 X14.807 Y57.143 E23.90433
G1 X14.528 Y56.247 E23.94803
G1 X14.327 Y55.331 E23.9917
G1 X14.205 Y54.401 E24.03537
G1 X14.162 Y53.465 E24.079
G1 X14.199 Y52.527 E24.12271
G1 X14.316 Y51.597 E24.16636
G1 X14.512 Y50.68 E24.21002
G1 X14.785 Y49.782 E24.25373
G1 X15.134 Y48.912 E24.29738
G1 X15.555 Y48.074 E24.34104
G1 X16.047 Y47.275 E24.38474
G1 X16.604 Y46.521 E24.42839
G1 X17.123 Y45.924 E24.46522
G1 X17.349 Y45.682 E24.48064
G1 X17.61 Y45.412 E24.49813
G1 X45.279 Y17.744 E26.32015
G0 F6000 X45.558 Y18.031
G1 F900 X46.039 Y17.563 E26.35139
G1 X46.726 Y16.95 E26.39427
G1 X47.464 Y16.399 E26.43715
G1 X48.247 Y15.914 E26.48004
G1 X49.068 Y15.499 E26.52288
G1 X49.923 Y15.157 E26.56576
G1 X50.804 Y14.891 E26.60861
G1 X51.705 Y14.701 E26.65148
G1 X52.619 Y14.591 E26.69435
G1 X53.539 Y14.561 E26.73721
G1 X54.459 Y14.61 E26.78011
G1 X55.37 Y14.739 E26.82296
G1 X56.267 Y14.947 E26.86583
G1 X57.143 Y15.231 E26.90871
G1 X57.99 Y15.591 E26.95157
G1 X58.804 Y16.022 E26.99446
G1 X59.576 Y16.523 E27.03731
G1 X60.302 Y17.089 E27.08018
G1 X60.722 Y17.466 E27.10646
G1 X60.951 Y17.683 E27.12115
G1 X61.155 Y17.882 E27.13442
G1 X201.962 Y158.689 E36.4068
G1 X202.43 Y159.169 E36.43801
G1 X203.043 Y159.856 E36.48089
G1 X203.595 Y160.593 E36.52376
G1 X204.08 Y161.375 E36.56661
G1 X204.496 Y162.196 E36.60947
G1 X204.839 Y163.051 E36.65236
G1 X205.107 Y163.932 E36.69524
G1 X205.297 Y164.832 E36.73807
G1 X205.408 Y165.746 E36.78095
G1 X205.44 Y166.666 E36.82381
G1 X205.391 Y167.586 E36.86671
G1 X205.263 Y168.498 E36.90959
G1 X205.056 Y169.395 E36.95246
G1 X204.773 Y170.271 E36.99533
G1 X204.414 Y171.118 E37.03816
G1 X203.983 Y171.932 E37.08105
G1 X203.483 Y172.705 E37.12392
G1 X202.918 Y173.432 E37.16679
G1 X202.557 Y173.836 E37.19202
G1 X202.347 Y174.059 E37.20628
G1 X202.125 Y174.287 E37.2211
G1 X174.452 Y201.96 E39.04342
G1 X173.963 Y202.436 E39.07519
G1 X173.276 Y203.049 E39.11806
G1 X172.538 Y203.6 E39.16095
G1 X171.756 Y204.084 E39.20377
G1 X170.934 Y204.5 E39.24667
G1 X170.079 Y204.842 E39.28955
G1 X169.198 Y205.109 E39.33242
G1 X168.297 Y205.298 E39.37528
G1 X167.383 Y205.409 E39.41816
G1 X166.463 Y205.439 E39.46102
G1 X165.544 Y205.39 E39.50387
G1 X164.632 Y205.262 E39.54675
G1 X163.735 Y205.054 E39.58963
G1 X162.859 Y204.77 E39.63251
G1 X162.012 Y204.41 E39.67537
G1 X161.199 Y203.979 E39.71821
G1 X160.426 Y203.478 E39.76111
G1 X159.699 Y202.913 E39.80398
G1 X159.254 Y202.512 E39.83187
G1 X158.996 Y202.266 E39.84847
G1 X158.816 Y202.09 E39.86019
G1 X152.377 Y195.65 E40.28425
G1 X151.903 Y195.162 E40.31592
G1 X151.291 Y194.475 E40.35877
G1 X150.741 Y193.737 E40.40162
G1 X150.257 Y192.954 E40.44449
G1 X149.843 Y192.131 E40.48738
G1 X149.501 Y191.276 E40.53026
G1 X149.235 Y190.395 E40.57312
G1 X149.047 Y189.494 E40.61597
G1 X148.937 Y188.58 E40.65884
G1 X148.907 Y187.856 E40.69258
G1 X148.899 Y186.64 E40.7492
G1 X148.902 Y186.049 E40.77672
G1 X148.846 Y183.537 E40.89372
G1 X148.719 Y181.016 E41.01126
G1 X148.521 Y178.504 E41.12859
G1 X148.247 Y175.963 E41.2476
G1 X147.908 Y173.472 E41.36466
G1 X147.5 Y170.999 E41.48137
G1 X147.014 Y168.498 E41.6
G1 X146.462 Y166.035 E41.71754
G1 X145.843 Y163.591 E41.83493
G1 X145.146 Y161.135 E41.95381
G1 X144.391 Y158.74 E42.07074
G1 X143.555 Y156.322 E42.18987
G1 X142.676 Y154.001 E42.30544
G1 X141.701 Y151.627 E42.42494
G1 X140.676 Y149.322 E42.54241
G1 X139.594 Y147.062 E42.65908
G1 X138.435 Y144.807 E42.77714
G1 X137.203 Y142.565 E42.89626
G1 X135.931 Y140.402 E43.0131
G1 X134.593 Y138.268 E43.13039
G1 X133.19 Y136.161 E43.24826
G1 X131.732 Y134.103 E43.3657
G1 X130.195 Y132.058 E43.48482
G1 X128.629 Y130.091 E43.6019
G1 X127.013 Y128.178 E43.7185
G1 X125.347 Y126.313 E43.83495
G1 X122.611 Y123.459 E44.01904
G1 X96.498 Y97.346 E45.73863
G1 X94.601 Y95.503 E45.86178
G1 X92.753 Y93.805 E45.97864
G1 X90.833 Y92.141 E46.09695
G1 X88.873 Y90.533 E46.215
G1 X86.897 Y89.005 E46.33131
G1 X84.845 Y87.511 E46.4495
G1 X82.749 Y86.073 E46.56786
G1 X80.616 Y84.695 E46.68611
G1 X78.473 Y83.396 E46.8028
G1 X76.247 Y82.131 E46.92202
G1 X74.033 Y80.954 E47.03877
G1 X71.789 Y79.842 E47.15539
G1 X69.459 Y78.77 E47.27482
G1 X67.146 Y77.781 E47.39195
G1 X64.791 Y76.852 E47.50983
G1 X62.412 Y75.993 E47.62761
G1 X60.004 Y75.2 E47.74566
G1 X57.6 Y74.48 E47.86251
G1 X55.164 Y73.827 E47.97995
G1 X52.679 Y73.235 E48.0989
G1 X50.205 Y72.719 E48.21658
G1 X47.743 Y72.279 E48.33303
G1 X45.219 Y71.9 E48.45188
G1 X42.713 Y71.596 E48.56943
G1 X40.183 Y71.361 E48.68774
G1 X37.679 Y71.201 E48.80457
G1 X35.17 Y71.111 E48.92148
G1 X32.342 Y71.091 E49.05317
G1 X31.906 Y71.079 E49.07348
G1 X31.699 Y71.069 E49.08313
G1 X30.782 Y70.984 E49.12601
G1 X29.876 Y70.821 E49.16887
G1 X28.987 Y70.579 E49.21177
G1 X28.123 Y70.262 E49.25463
G1 X27.29 Y69.87 E49.2975
G1 X26.494 Y69.408 E49.34035
G1 X25.741 Y68.878 E49.38323
G1 X24.948 Y68.203 E49.43172
G1 X24.713 Y67.982 E49.44674
G1 X24.479 Y67.755 E49.46192
G1 X18.02 Y61.293 E49.88736
G1 X17.556 Y60.815 E49.91838
G1 X16.944 Y60.127 E49.96125
G1 X16.394 Y59.389 E50.00411
G1 X15.91 Y58.606 E50.04697
G1 X15.496 Y57.783 E50.08987
G1 X15.155 Y56.928 E50.13273
G1 X14.89 Y56.047 E50.17557
G1 X14.701 Y55.146 E50.21844
G1 X14.592 Y54.231 E50.26135
G1 X14.563 Y53.311 E50.30421
G1 X14.613 Y52.392 E50.34706
G1 X14.743 Y51.481 E50.38991
G1 X14.952 Y50.584 E50.4328
G1 X15.237 Y49.709 E50.47565
G1 X15.598 Y48.861 E50.51857
G1 X16.031 Y48.049 E50.56142
G1 X16.532 Y47.277 E50.60427
G1 X17.099 Y46.551 E50.64716
G1 X17.415 Y46.197 E50.66926
G1 X17.641 Y45.955 E50.68468
G1 X17.893 Y45.695 E50.70154
G1 X45.558 Y18.031 E52.52329
G0 F6000 X45.837 Y18.317
G1 F900 X46.318 Y17.849 E52.55454
G1 X46.993 Y17.249 E52.5966
G1 X47.718 Y16.71 E52.63866
G1 X48.487 Y16.238 E52.68068
G1 X49.296 Y15.836 E52.72274
G1 X50.137 Y15.507 E52.76479
G1 X51.004 Y15.253 E52.80686
G1 X51.889 Y15.077 E52.84888
G1 X52.787 Y14.98 E52.89093
G1 X53.69 Y14.963 E52.93299
G1 X54.591 Y15.026 E52.97505
G1 X55.483 Y15.169 E53.01711
G1 X56.359 Y15.389 E53.05917
G1 X57.211 Y15.686 E53.10118
G1 X58.035 Y16.058 E53.14328
G1 X58.822 Y16.501 E53.18533
G1 X59.566 Y17.012 E53.22736
G1 X60.447 Y17.756 E53.28106
G1 X60.676 Y17.973 E53.29575
G1 X60.872 Y18.165 E53.30852
G1 X201.675 Y158.968 E62.58064
G1 X202.143 Y159.448 E62.61186
G1 X202.744 Y160.122 E62.6539
G1 X203.284 Y160.847 E62.696
G1 X203.757 Y161.616 E62.73804
G1 X204.16 Y162.424 E62.78008
G1 X204.49 Y163.265 E62.82215
G1 X204.744 Y164.131 E62.86417
G1 X204.921 Y165.017 E62.90624
G1 X205.019 Y165.915 E62.94831
G1 X205.037 Y166.818 E62.99036
G1 X204.975 Y167.719 E63.03242
G1 X204.834 Y168.611 E63.07447
G1 X204.614 Y169.487 E63.11652
G1 X204.317 Y170.34 E63.15858
G1 X203.947 Y171.163 E63.2006
G1 X203.505 Y171.951 E63.24267
G1 X202.995 Y172.696 E63.28471
G1 X202.266 Y173.562 E63.33742
G1 X202.056 Y173.785 E63.35168
G1 X201.842 Y174.004 E63.36594
G1 X174.173 Y201.673 E65.18799
G1 X173.684 Y202.149 E65.21977
G1 X173.009 Y202.75 E65.26185
G1 X172.284 Y203.288 E65.30389
G1 X171.515 Y203.761 E65.34593
G1 X170.706 Y204.163 E65.388
G1 X169.865 Y204.493 E65.43006
G1 X168.999 Y204.746 E65.47207
G1 X168.113 Y204.922 E65.51413
G1 X167.215 Y205.02 E65.5562
G1 X166.312 Y205.037 E65.59825
G1 X165.411 Y204.974 E65.64031
G1 X164.519 Y204.832 E65.68237
G1 X163.644 Y204.611 E65.72439
G1 X162.791 Y204.314 E65.76645
G1 X161.967 Y203.943 E65.80853
G1 X161.18 Y203.5 E65.85058
G1 X160.435 Y202.99 E65.89262
G1 X159.53 Y202.222 E65.94789
G1 X159.272 Y201.976 E65.96449
G1 X159.099 Y201.807 E65.97575
G1 X152.664 Y195.372 E66.39951
G1 X152.19 Y194.884 E66.43118
G1 X151.59 Y194.209 E66.47324
G1 X151.053 Y193.483 E66.51529
G1 X150.581 Y192.713 E66.55734
G1 X150.179 Y191.904 E66.59941
G1 X149.851 Y191.063 E66.64144
G1 X149.598 Y190.196 E66.68349
G1 X149.423 Y189.31 E66.72555
G1 X149.327 Y188.412 E66.7676
G1 X149.307 Y187.853 E66.79365
G1 X149.299 Y186.642 E66.85004
G1 X149.302 Y186.043 E66.87793
G1 X149.247 Y183.542 E66.99441
G1 X149.118 Y181.003 E67.11279
G1 X148.915 Y178.428 E67.23307
G1 X148.647 Y175.938 E67.34968
G1 X148.305 Y173.425 E67.46778
G1 X147.887 Y170.895 E67.58718
G1 X147.404 Y168.407 E67.7052
G1 X146.855 Y165.955 E67.8222
G1 X146.231 Y163.492 E67.94051
G1 X145.527 Y161.011 E68.0606
G1 X144.779 Y158.637 E68.1765
G1 X143.927 Y156.175 E68.29781
G1 X143.049 Y153.856 E68.41327
G1 X142.078 Y151.491 E68.53231
G1 X141.031 Y149.137 E68.65228
G1 X139.946 Y146.871 E68.76927
G1 X138.784 Y144.61 E68.88764
G1 X137.57 Y142.401 E69.00501
G1 X136.265 Y140.182 E69.12488
G1 X134.932 Y138.056 E69.24172
G1 X133.522 Y135.938 E69.3602
G1 X132.046 Y133.854 E69.47911
G1 X130.513 Y131.814 E69.59794
G1 X128.948 Y129.85 E69.71487
G1 X127.3 Y127.899 E69.83379
G1 X125.637 Y126.037 E69.95004
G1 X122.9 Y123.182 E70.1342
G1 X96.811 Y97.093 E71.85221
G1 X94.866 Y95.204 E71.97846
G1 X93.005 Y93.494 E72.09614
G1 X91.101 Y91.843 E72.21349
G1 X89.146 Y90.24 E72.33121
G1 X87.092 Y88.652 E72.45211
G1 X85.102 Y87.202 E72.56676
G1 X82.97 Y85.74 E72.68713
G1 X80.835 Y84.36 E72.80551
G1 X78.656 Y83.04 E72.92413
G1 X76.468 Y81.796 E73.04133
G1 X74.219 Y80.601 E73.15992
G1 X71.955 Y79.478 E73.2776
G1 X69.635 Y78.41 E73.39652
G1 X67.27 Y77.4 E73.51627
G1 X64.938 Y76.48 E73.633
G1 X62.536 Y75.613 E73.75191
G1 X60.129 Y74.819 E73.86993
G1 X57.713 Y74.097 E73.98735
G1 X55.263 Y73.44 E74.10546
G1 X52.774 Y72.847 E74.2246
G1 X50.258 Y72.322 E74.34428
G1 X47.795 Y71.882 E74.46079
G1 X45.295 Y71.507 E74.5785
G1 X42.727 Y71.195 E74.69896
G1 X40.247 Y70.965 E74.81493
G1 X37.682 Y70.8 E74.93461
G1 X35.187 Y70.711 E75.05087
G1 X32.345 Y70.691 E75.1832
G1 X31.925 Y70.679 E75.20277
G1 X31.718 Y70.669 E75.21242
G1 X30.819 Y70.586 E75.25446
G1 X29.93 Y70.423 E75.29654
G1 X29.06 Y70.182 E75.33858
G1 X28.214 Y69.866 E75.38063
G1 X27.4 Y69.475 E75.42268
G1 X26.623 Y69.015 E75.46473
G1 X25.89 Y68.487 E75.50679
G1 X25.222 Y67.911 E75.54786
G1 X24.987 Y67.69 E75.56288
G1 X24.762 Y67.472 E75.57747
G1 X18.307 Y61.015 E76.00261
G1 X17.843 Y60.537 E76.03363
G1 X17.243 Y59.861 E76.07572
G1 X16.706 Y59.136 E76.11773
G1 X16.234 Y58.365 E76.15982
G1 X15.833 Y57.556 E76.20187
G1 X15.505 Y56.715 E76.2439
G1 X15.252 Y55.848 E76.28596
G1 X15.077 Y54.962 E76.32801
